!!!!SEGMENT: pl-cz--ii-121--003_klakowski--missa-in-dis-credo.krn
!!!cenid: 18xx:880
!!!COM: Klakowski
!!!COM-rismid: pe30098487
!!!CDT: ~1800-~1899
!!!CNT:
!!!OPR: Missa in Dis
!!!OTL: Credo
!!!OMV: 003
!!!PDT:
!!!AGN: Sacred; Mass
!!!SMS-siglum: PL-CZ
!!!SMS-shelfmark: II-121
!!!SMS-shelfwork: 001-003 M
!!!SMS-variant:
!!!SMS-altvar:
!!!NIFC-rismid: 300000590
!!!URL-scan: http://repozytorium.nifc.pl/skany/pl-cz-nut--ii-121
!!!ONB-nifc: UWAGA: części Mszy: Kyrie, Gloria, Credo, Et incarnatus, Et resurrexit, Sanctus, Benedictus, Agnus Dei, Dona nobis
!!!key: E-
**kern	**fba	**dynam	**kern	**dynam	**kern	**dynam	**kern	**dynam	**kern	**text	**kern	**text	**kern	**text	**kern	**text	**kern	**dynam	**kern	**dynam	**kern	**dynam	**kern	**dynam
*part12	*part12	*part12	*part11	*part11	*part10	*part10	*part9	*part9	*part8	*part8	*part7	*part7	*part6	*part6	*part5	*part5	*part4	*part4	*part3	*part3	*part2	*part2	*part1	*part1
*staff12	*	*	*staff11	*	*staff10	*	*staff9	*	*staff8	*staff8	*staff7	*staff7	*staff6	*staff6	*staff5	*staff5	*staff4	*	*staff3	*	*staff2	*	*staff1	*
*I"Organo	*	*	*I"Alto Viola	*	*I"Violino Secondo	*	*I"Violino Primo	*	*I"Baſso	*	*I"Tenore	*	*I"Alto	*	*I"Canto	*	*I"Corno Secundo in Dis.	*	*I"Corno Primo in D.	*	*I"Clarinetto Secondo in B	*	*I"Clarinetto Primo in B	*
*I'org	*	*	*I'vla	*	*I'vl II	*	*I'vl I	*	*I'B	*	*I'T	*	*I'A	*	*I'S	*	*I'cor II	*	*I'cor I	*	*I'cl II	*	*I'cl I	*
*ICklav	*	*	*ICstr	*	*ICstr	*	*ICstr	*	*ICvox	*	*ICvox	*	*ICvox	*	*ICvox	*	*ICbras	*	*ICbras	*	*ICbras	*	*ICbras	*
*Iorgan	*	*	*Iviola	*	*Ivioln	*	*Ivioln	*	*Ibass	*	*Itenor	*	*Ialto	*	*Isoprn	*	*Icor	*	*Icor	*	*Iclars	*	*Iclars	*
*clefF4	*	*	*clefC3	*	*clefG2	*	*clefG2	*	*clefF4	*	*clefC4	*	*clefC3	*	*clefC1	*	*clefG2	*	*clefG2	*	*clefG2	*	*clefG2	*
*	*	*	*	*	*	*	*	*	*	*	*	*	*	*	*	*	*ITrd-2c-3	*	*ITrd-2c-3	*	*ITrd1c2	*	*ITrd1c2	*
*E-:	*	*	*E-:	*	*E-:	*	*E-:	*	*E-:	*	*E-:	*	*E-:	*	*E-:	*	*E-:	*	*E-:	*	*E-:	*	*E-:	*
*k[b-e-a-]	*	*	*k[b-e-a-]	*	*k[b-e-a-]	*	*k[b-e-a-]	*	*k[b-e-a-]	*	*k[b-e-a-]	*	*k[b-e-a-]	*	*k[b-e-a-]	*	*k[b-e-a-]	*	*k[b-e-a-]	*	*k[b-e-a-]	*	*k[b-e-a-]	*
*M3/4	*	*	*M3/4	*	*M3/4	*	*M3/4	*	*M3/4	*	*M3/4	*	*M3/4	*	*M3/4	*	*M3/4	*	*M3/4	*	*M3/4	*	*M3/4	*
=1	=1	=1	=1	=1	=1	=1	=1	=1	=1	=1	=1	=1	=1	=1	=1	=1	=1	=1	=1	=1	=1	=1	=1	=1
!!LO:TX:t=P:problem: all\right	!	!	!	!	!	!	!	!	!	!	!	!	!	!	!	!	!	!	!	!	!	!	!
!	!	!	!	!	!	!	!	!	!	!	!	!	!	!	!LO:TX:b:B:t=Alti	!	!	!	!	!	!	!	!	!
!	!	!	!	!	!	!	!	!	!	!	!	!	!	!	!LO:TX:a:B:t=allo	!	!	!	!	!	!	!	!	!
!LO:TX:a:B:t=allo Moderato	!	!	!LO:TX:a:B:t=alle Mode	!	!LO:TX:a:B:t=allo Mode	!	!LO:TX:a:B:t=allo Moderato	!	!LO:TX:a:B:t=allo moderato	!	!	!	!LO:TX:a:B:t=allo	!	!	!	!LO:TX:a:B:t=allo Mod	!	!LO:TX:a:B:t=allo mod in Dis	!	!LO:TX:a:B:t=alle Mode	!	!LO:TX:a:B:t=allo Mod.	!
!	!	!	!	!	!	!	!LO:TX:t=P:problem: vl I w całym utworze względem źródła ma przesunięte takty o 2!	!	!	!	!	!	!	!	!	!	!	!	!	!	!	!	!	!
4E-\	.	.	4B-/	.	4B-/ 4g	.	4G/ 4e- 4ee-	.	4E-\	Cre-	4G/	Cre-	4b-\	Cre-	4ee-\	Cre-	4g/	.	4ee-\	.	4b-\	f	4ee-\	f
4E-\	.	.	4B-/	f	4B-/ 4g	.	4G/ 4e- 4ee-	.	4E-\	-do	4G/	-do	4b-\	-do	4ee-\	-do	4g/	ff	4ee-\	.	4b-\	.	4ee-\	.
4r	.	.	4r	.	4r	.	4r	.	4r	.	4r	.	4r	.	4r	.	4r	.	4r	.	4r	.	4r	.
=2	=2	=2	=2	=2	=2	=2	=2	=2	=2	=2	=2	=2	=2	=2	=2	=2	=2	=2	=2	=2	=2	=2	=2	=2
*	*	*	*	*	*^	*	*	*	*	*	*	*	*	*	*	*	*	*	*	*	*	*	*	*
!	!	!	!LO:TX:a:t=1	!	!	!	!	!	!	!	!	!	!	!	!	!	!	!	!	!	!	!	!	!LO:TX:a:t=Solo	!
!	!	!	!	!	!	!	!	!LO:TX:t=P:problem: w źródle nuty te dopiero 3 takcie, a w 2 powinna być pauza	!	!	!	!	!	!	!	!	!	!	!	!	!	!	!	!	!
2.r	.	.	2.r	.	2.r	4G/	.	4d\ 4b- 4ff	.	2.r	.	2.r	.	2.r	.	2.r	.	4g/	.	(4ee-'\	.	(4b-\	.	4ee-\	p
.	.	.	.	.	.	4B-/	.	4d\ 4b- 4ff	.	.	.	.	.	.	.	.	.	4b-/	p	4ff'\	p	4dd\	p	4ff\	.
.	.	.	.	.	.	4e-/	.	4r	.	.	.	.	.	.	.	.	.	4ee-/	.	4gg'\)	.	4ee-\)	.	4gg\	.
*	*	*	*	*	*v	*v	*	*	*	*	*	*	*	*	*	*	*	*	*	*	*	*	*	*	*
=3	=3	=3	=3	=3	=3	=3	=3	=3	=3	=3	=3	=3	=3	=3	=3	=3	=3	=3	=3	=3	=3	=3	=3	=3
*	*	*	*	*	*	*	*	*	*	*	*ij	*	*ij	*	*ij	*	*	*	*	*	*	*	*	*
!	!	!	!	!	!	!	!LO:TX:t=P:problem: w źródle nuty te dopiero 5 takcie, a w 3 powinna byc pauza	!	!	!	!	!	!	!	!	!	!	!	!	!	!	!	!	!
4B-\	.	.	4f\	.	4d/ 4dd	.	4e-\ 4b- 4gg	.	4B-\	Cre-	4B-\	Cre-	4dd\	Cre-	4ff\	Cre-	4b-/	.	4ff\	.	4dd\	.	4ff\	.
4B-\	.	.	4f\	.	4d/ 4dd	.	4e-\ 4b- 4gg	.	4B-\	-do	4B-\	-do	4dd\	-do	4ff\	-do	4b-/	f	4ff\	f	4dd\	f	4ff\	.
4r	.	.	4r	.	4r	.	4r	.	4r	.	4r	.	4r	.	4r	.	4r	.	4r	.	4r	.	4r	.
=4	=4	=4	=4	=4	=4	=4	=4	=4	=4	=4	=4	=4	=4	=4	=4	=4	=4	=4	=4	=4	=4	=4	=4	=4
*	*	*	*	*	*^	*	*	*	*	*	*	*	*	*	*	*	*	*	*	*	*	*	*	*
!	!	!	!LO:TX:a:t=1	!	!	!	!	!LO:TX:a:t=2	!	!	!	!	!	!	!	!	!	!	!	!	!	!	!	!	!
!	!	!	!	!	!	!	!	!	!LO:TX:t=P:problem: pauzy powinny być 2 takty później tj. 6 takt i 7 takt (wg. źródła)	!	!	!	!	!	!	!	!	!	!	!	!	!	!	!	!
2.r	.	.	2.r	.	2.r	4B-/	.	2.r	.	2.r	.	2.r	.	2.r	.	2.r	.	4b-/	.	4ff\	.	(4dd`\	.	4ff\	.
.	.	.	.	.	.	4e-/	.	.	.	.	.	.	.	.	.	.	.	4ee-/	p	4gg`\	.	4ee-`\	p	4gg\	.
.	.	.	.	.	.	4f/	.	.	.	.	.	.	.	.	.	.	.	4ff/	.	4aa-`\	.	4ff`\)	.	4aa-\	.
*	*	*	*	*	*v	*v	*	*	*	*	*	*	*	*	*	*	*	*	*	*	*	*	*	*	*
=5	=5	=5	=5	=5	=5	=5	=5	=5	=5	=5	=5	=5	=5	=5	=5	=5	=5	=5	=5	=5	=5	=5	=5	=5
*	*	*	*	*	*	*	*	*	*	*	*	*	*	*	*	*ij	*	*	*	*	*	*	*	*
4E-\	.	.	4B-/	.	4e-/ 4ee-	.	2.r	.	4E-\	Cre-	4B-\	Cre-	4ee-\	Cre-	4gg\	Cre-	4ee-\	.	4gg\	.	4ee-\	.	4gg\	.
4E-\	.	.	4B-/	.	4e-/ 4ee-	.	.	.	4E-\	-do	4B-\	-do	4ee-\	-do	4gg\	-do	4ee-\	.	4gg\	.	4ee-\	f	4gg\	.
*	*	*	*	*	*	*	*	*	*	*Xij	*	*Xij	*	*Xij	*	*Xij	*	*	*	*	*	*	*	*
4r	.	.	4r	.	4r	.	.	.	4r	.	4r	.	4r	.	4r	.	4r	.	4r	.	4r	.	4r	.
!	!	!	!	!	!	!	!	!	!	!	!	!	!	!	!	!	!	!	!	!	!LO:LB:g=original	!	!	!
=6	=6	=6	=6	=6	=6	=6	=6	=6	=6	=6	=6	=6	=6	=6	=6	=6	=6	=6	=6	=6	=6	=6	=6	=6
*	*	*	*	*	*^	*	*	*	*	*	*	*	*	*	*	*	*	*	*	*	*	*	*	*
!	!	!	!LO:TX:a:t=1	!	!LO:TX:a:t=2	!	!	!	!	!	!	!LO:TX:a:t=3	!	!	!	!	!	!	!	!LO:TX:a:t=2	!	!	!	!	!
!	!	!	!	!	!	!	!	!LO:TX:t=P:problem: w źródle nuty te dopiero 8 takcie, kolejne takty mają ten sam problem!	!	!	!	!	!	!	!	!	!	!	!	!	!	!	!	!	!
2.r	.	.	2.r	.	2.r	(4e-\	.	(4a-/	.	2.r	.	2.r	.	2.r	.	2.r	.	2.r	.	2.r	.	4ee-\	.	4gg\	.
.	.	.	.	.	.	4f\)	.	4g/)	.	.	.	.	.	.	.	.	.	.	.	.	.	4ff\	p	4aa-\	.
.	.	.	.	.	.	4g'\	.	4f`/	.	.	.	.	.	.	.	.	.	.	.	.	.	4gg\	.	4bb-\	.
=7	=7	=7	=7	=7	=7	=7	=7	=7	=7	=7	=7	=7	=7	=7	=7	=7	=7	=7	=7	=7	=7	=7	=7	=7	=7
!LO:TX:b:t=pedale	!	!	!	!	!	!	!	!	!	!	!	!	!	!	!	!	!	!	!	!	!	!	!	!	!
!LO:TX:a:t=Solo	!	!	!	!	!	!	!	!	!	!	!	!	!	!	!	!	!	!	!	!	!	!	!	!	!
!	!	!	!	!	!	!	!	!	!LO:DY:t=f.	!	!	!	!	!	!	!	!	!	!	!	!	!	!	!	!
4BB-/	.	.	4B-/	.	2.r	2f/	.	2e-\ 2ee-	f	2.r	.	2.r	.	2.r	.	2.r	.	2.r	.	2.r	.	2ff\	.	2aa-\	.
4D/	.	.	4d/	.	.	.	.	.	.	.	.	.	.	.	.	.	.	.	.	.	.	.	.	.	.
4E-/	.	.	4e-/	.	.	4e-/	.	(16gg\LL	.	.	.	.	.	.	.	.	.	.	.	.	.	4ee-\	.	4gg\	.
.	.	.	.	.	.	.	.	16ff\	.	.	.	.	.	.	.	.	.	.	.	.	.	.	.	.	.
.	.	.	.	.	.	.	.	16gg\	.	.	.	.	.	.	.	.	.	.	.	.	.	.	.	.	.
.	.	.	.	.	.	.	.	16aa-\JJ)	.	.	.	.	.	.	.	.	.	.	.	.	.	.	.	.	.
*	*	*	*	*	*v	*v	*	*	*	*	*	*	*	*	*	*	*	*	*	*	*	*	*	*	*
!	!	!	!	!	!	!	!	!	!	!	!	!	!	!	!	!	!	!LO:LB:g=original	!	!	!	!	!	!
=8	=8	=8	=8	=8	=8	=8	=8	=8	=8	=8	=8	=8	=8	=8	=8	=8	=8	=8	=8	=8	=8	=8	=8	=8
4A-\	.	.	4a-\	.	(4f/	.	4bb-\	.	2.r	.	2.r	.	2.r	.	2.r	.	4b-/	.	4ff\	.	4a-/	.	4ff\	.
4B-\	.	.	4b-\	.	4e-/)	p	4b-\ 4bb-	.	.	.	.	.	.	.	.	.	4g/	p	4ee-\	.	4g/	.	4ee-\	.
4BB-/	.	.	4B-/	.	4d/	.	4b-\ 4bb-	.	.	.	.	.	.	.	.	.	4B-/	.	4b-/	.	4f/	.	4dd\	.
!	!	!	!LO:LB:g=original	!	!	!	!	!	!	!	!	!	!	!	!	!	!	!	!	!	!	!	!LO:LB:g=original	!
!	!	!	!	!	!	!	!	!	!	!	!	!	!	!	!	!	!	!	!LO:LB:g=original	!	!	!	!	!
=9	=9	=9	=9	=9	=9	=9	=9	=9	=9	=9	=9	=9	=9	=9	=9	=9	=9	=9	=9	=9	=9	=9	=9	=9
*	*	*	*tremolo	*	*	*	*	*	*	*	*	*	*	*	*	*	*	*	*	*	*	*	*	*
!LO:TX:a:t=Tutti	!	!	!	!	!	!	!	!	!	!	!	!	!	!	!	!	!	!	!	!	!	!	!	!
!	!	!LO:DY:t=f.	!	!	!	!	!	!	!	!	!	!	!	!	!	!	!	!	!	!	!	!	!	!
8E-\L	.	f	8e-\L	.	8g`/L	f	(8bb-\L	.	4E-\	Cre-	4e-\	Cre-	4b-\	Cre-	4gg\	Cre-	2g/	.	2ee-\	.	2b-\	f	2ee-\	.
8G\	.	.	8e-\	.	8b-`/	.	8b-\)	.	.	.	.	.	.	.	.	.	.	.	.	.	.	.	.	.
8E-\	.	.	8e-\	.	8g`/	.	8bb-`\	.	8E-\	-do	8e-\	-do	8b-\	-do	8gg\	-do	.	.	.	.	.	.	.	.
8G\	.	.	8e-\	.	8b-`/	.	8bb-`\	.	8E-\	in	8e-\	in	8b-\	in	8gg\	in	.	.	.	.	.	.	.	.
8E-\	.	.	8e-\	.	8g`/	.	(8bb-\	.	8E-\	U-	8e-\	u-	8b-\	U-	8gg\	u-	4ee-/	f	4gg\	f	4ee-\	.	4gg\	.
8G\J	.	.	8e-\J	.	8b-`/J	.	8b-\J)	.	8E-\	-num	8e-\	-num	8b-\	-num	8gg\	-num	.	.	.	.	.	.	.	.
!	!	!	!	!	!LO:LB:g=original	!	!	!	!LO:LB:g=original	!	!LO:LB:g=original	!	!LO:LB:g=original	!	!	!	!	!	!	!	!	!	!	!
=10	=10	=10	=10	=10	=10	=10	=10	=10	=10	=10	=10	=10	=10	=10	=10	=10	=10	=10	=10	=10	=10	=10	=10	=10
*tremolo	*	*	*	*	*	*	*	*	*	*	*	*	*	*	*	*	*	*	*	*	*	*	*	*
8E-\L	.	.	8e-\L	.	8g`/L	.	(8bb-\L	.	2E-\	De-	2e-\	De-	2b-\	De-	2gg\	De-	4b-/	.	4bb-\	.	2.gg\	.	2.bb-\	.
8G\	.	.	8e-\	.	8b-`/	.	8b-\)	.	.	.	.	.	.	.	.	.	.	.	.	.	.	.	.	.
8E-\	.	.	8e-\	.	8g`/	.	8bb-`\	.	.	.	.	.	.	.	.	.	4b-/	.	4bb-\	.	.	.	.	.
8G\	.	.	8e-\	.	8b-`/	.	8bb-`\	.	.	.	.	.	.	.	.	.	.	.	.	.	.	.	.	.
8E-\	.	.	8e-\	.	8g`/	.	(8bb-\	.	4E-\	-um	4e-\	-um	4b-\	-um	4gg\	-um	4b-/	.	4bb-\	.	.	.	.	.
8G\J	.	.	8e-\J	.	8b-`/J	.	8b-\J)	.	.	.	.	.	.	.	.	.	.	.	.	.	.	.	.	.
=11	=11	=11	=11	=11	=11	=11	=11	=11	=11	=11	=11	=11	=11	=11	=11	=11	=11	=11	=11	=11	=11	=11	=11	=11
*Xtremolo	*	*	*Xtremolo	*	*	*	*	*	*	*	*	*	*	*	*	*	*	*	*	*	*	*	*	*
4E-\	.	.	4b-\	.	4g/	.	2e-/ 2ee-	.	4.E-\	Pa-	2B-\	Pa-	2b-\	Pa-	4.gg\	Pa-	2b-/	.	2bb-\	.	4ee-\	.	4gg\	.
8r	.	.	8r	.	8r	.	.	.	.	.	.	.	.	.	.	.	.	.	.	.	8r	.	8r	.
!	!	!	!	!	!	!	!	!	!	!	!	!	!	!	!	!	!	!	!	!	!	!	!	!
8D\L	6_ 3	.	8b-\L	.	8f`/L	.	.	.	8D\	.	.	.	.	.	8ff\L	.	.	.	.	.	8dd`\L	.	8ff\L	.
!	!	!	!	!	!	!	!	!	!	!	!	!	!	!	!	!	!	!	!	!	!	!	!	!
8E-\	x 3	.	8b-\	.	8g`/	.	(16gg\LL	.	8E-\L	-trem	4B-\	-trem	4b-\	-trem	8gg\J	.	4b-/	.	4bb-\	.	(8ee-\	.	8gg\	.
.	.	.	.	.	.	.	16ff\	.	.	.	.	.	.	.	.	.	.	.	.	.	.	.	.	.
!	!	!	!	!	!	!	!	!	!	!	!	!	!	!	!	!	!	!	!	!	!	!	!	!
8F\J	x 3	.	8b-\J	.	8a-`/J	.	16gg\	.	8F\J	.	.	.	.	.	8aa-\	-trem	.	.	.	.	8ff\J)	.	8aa-\J	.
.	.	.	.	.	.	.	16aa-\JJ)	.	.	.	.	.	.	.	.	.	.	.	.	.	.	.	.	.
!	!	!	!	!	!	!	!	!	!	!	!	!	!	!	!LO:LB:g=original	!	!	!	!	!	!	!	!	!
!	!	!	!	!	!	!	!LO:DY:t=f.	!	!	!	!	!	!	!	!	!	!	!	!	!	!	!	!	!
=12	=12	=12	=12	=12	=12	=12	=12	=12	=12	=12	=12	=12	=12	=12	=12	=12	=12	=12	=12	=12	=12	=12	=12	=12
4E-\	5 3	.	4b-\	.	4g/	.	4bb-\	.	4.E-\	O-	2B-\	O-	4b-\	IO-	4.gg\	O-	2b-/	.	2bb-\	.	4ee-\	.	4gg\	.
8r	.	.	8r	.	8r	.	4b-\ 4bb-	.	.	.	.	.	4b-\	-mni-	.	.	.	.	.	.	8r	.	8r	.
8D\L	6_ 3	.	8b-\L	.	8f`/L	.	.	.	8D\	.	.	.	.	.	8ff\	-mni	.	.	.	.	8dd`\L	.	8ff\L	.
8E-\	x 3	.	8b-\	.	8g`/	.	4b-\ 4bb-	.	8E-\L	-mni	4B-\	-mni	4b-\	-po-	8gg\L	po-	4b-/	.	4bb-\	.	(8ee-\	.	8gg\	.
8F\J	x 3	.	8b-\J	.	8a-`/J	.	.	.	8F\J	.	.	.	.	.	8aa-\J	.	.	.	.	.	8ff\J)	.	8aa-\J	.
!LO:LB:g=original	!	!	!	!	!	!	!	!	!	!	!	!	!	!	!	!	!	!	!	!	!	!	!	!
=13	=13	=13	=13	=13	=13	=13	=13	=13	=13	=13	=13	=13	=13	=13	=13	=13	=13	=13	=13	=13	=13	=13	=13	=13
*tremolo	*	*	*tremolo	*	*	*	*	*	*	*	*	*	*	*	*	*	*	*	*	*	*	*	*	*
8E-\L	5_ 3_	.	8e-\L	.	8g`/L	.	(8bb-\L	.	4E-\	po-	4e-\	po-	4b-\	-ten-	4gg\	-ten-	2g/	.	2ee-\	.	2b-\	.	2ee-\	.
8G\	.	.	8e-\	.	8b-`/	.	8b-\)	.	.	.	.	.	.	.	.	.	.	.	.	.	.	.	.	.
8E-\	.	.	8e-\	.	8g`/	.	8bb-\	.	4E-\	-ten-	4e-\	-ten-	4b-\	-tem	4gg\	-tem	.	.	.	.	.	.	.	.
8G\	.	.	8e-\	.	8b-`/	.	8bb-\	.	.	.	.	.	.	.	.	.	.	.	.	.	.	.	.	.
8E-\	.	.	8e-\	.	8g`/	.	(8bb-\	.	4E-\	-tem	4e-\	-tem	4b-\	fac-	4gg\	fac-	4ee-/	f	4gg\	f	4ee-\	.	4gg\	.
8G\J	.	.	8e-\J	.	8b-`/J	.	8b-\J)	.	.	.	.	.	.	.	.	.	.	.	.	.	.	.	.	.
=14	=14	=14	=14	=14	=14	=14	=14	=14	=14	=14	=14	=14	=14	=14	=14	=14	=14	=14	=14	=14	=14	=14	=14	=14
8E-\L	.	.	8e-\L	.	8g/L	.	(8bb-\L	.	4E-\	fac-	4e-\	fac-	[4b-\	-to-	[4gg\	-to-	4b-/	.	4bb-\	.	2.gg\	.	2.bb-\	.
8G\	.	.	8e-\	.	8b-/	.	8b-\)	.	.	.	.	.	.	.	.	.	.	.	.	.	.	.	.	.
8E-\	.	.	8e-\	.	8g/	.	8bb-`\	.	4E-\	-to-	4e-\	-to-	4b-\]	.	4gg\]	.	4b-/	.	4bb-\	.	.	.	.	.
8G\	.	.	8e-\	.	8b-/	.	8bb-`\	.	.	.	.	.	.	.	.	.	.	.	.	.	.	.	.	.
8E-\	.	.	8e-\	.	8g/	.	(8bb-\	.	4E-\	-rem	4e-\	-rem	4b-\	-tem	4gg\	-rem	4b-/	.	4bb-\	.	.	.	.	.
8G\J	.	.	8e-\J	.	8b-/J	.	8b-\J)	.	.	.	.	.	.	.	.	.	.	.	.	.	.	.	.	.
=15	=15	=15	=15	=15	=15	=15	=15	=15	=15	=15	=15	=15	=15	=15	=15	=15	=15	=15	=15	=15	=15	=15	=15	=15
!	!	!	!	!	!	!	!LO:TX:t=P:problem: w źródle nie ma tych pauz, zamiast tego są nuty jak wyżej	!	!	!	!	!	!	!	!	!	!	!	!	!	!	!	!	!
*	*	*	*Xtremolo	*	*	*	*	*	*	*	*	*	*	*	*	*	*	*	*	*	*	*	*	*
4E-\	5 3	.	4b-\	.	4g/	.	2.ryy	.	4.E-\	Cae-	2B-\	Cae-	2b-\	Cae-	4.gg\	Cae-	2b-/	.	2bb-\	.	4ee-\	.	4gg\	.
8r	.	.	8r	.	8r	.	.	.	.	.	.	.	.	.	.	.	.	.	.	.	8r	.	8r	.
8D\L	6_ 3	.	8b-\L	.	8f`/L	.	.	.	8D\	.	.	.	.	.	8ff\	-li	.	.	.	.	8dd`\L	.	8ff\L	.
8E-\	x 3	.	8b-\	.	8g`/	.	.	.	8E-\L	-li	4B-\	-li	8b-\	-li	8gg\L	et	4b-/	.	4bb-\	.	(8ee-\	.	8gg\	.
8F\J	x 3	.	8b-\J	.	8a-`/J	.	.	.	8F\J	.	.	.	8b-\	et	8aa-\J	.	.	.	.	.	8ff\J)	.	8aa-\J	.
!	!	!	!	!	!	!	!	!	!	!	!	!	!	!	!	!	!	!	!	!	!LO:LB:g=original	!	!	!
=16	=16	=16	=16	=16	=16	=16	=16	=16	=16	=16	=16	=16	=16	=16	=16	=16	=16	=16	=16	=16	=16	=16	=16	=16
!	!	!	!	!	!	!	!LO:TX:t=P:problem: w źródle nie ma tych pauz, zamiast tego są nuty jak wyżej	!	!	!	!	!	!	!	!	!	!	!	!	!	!	!	!	!
4E-\	5 3	.	4b-\	.	4g/	.	2.ryy	.	4.E-\	et	2B-\	et	2b-\	ter-	4.gg\	ter-	2b-/	.	2bb-\	.	4ee-\	.	4gg\	.
8r	.	.	8r	.	8r	.	.	.	.	.	.	.	.	.	.	.	.	.	.	.	8r	.	8r	.
8D\L	6_ 3	.	8b-\L	.	8f`/L	.	.	.	8D\	ter-	.	.	.	.	8ff\L	.	.	.	.	.	8dd`\L	.	8ff\L	.
8E-\	x 3	.	8b-\	.	8g`/	.	.	.	8E-\	.	8B-\	ter-	(8b-\	-rae	8gg\J	.	4b-/	.	4bb-\	.	(8ee-\	.	8gg\	.
8F\J	x 3	.	8b-\J	.	8a-`/J	.	.	.	8F\	-rae	8B-\	-rae	8b-\)	.	8aa-\	-rae	.	.	.	.	8ff\J)	.	8aa-\J	.
!	!	!	!LO:LB:g=original	!	!	!	!	!	!	!	!	!	!LO:LB:g=original	!	!LO:LB:g=original	!	!	!	!	!	!	!	!	!
=17	=17	=17	=17	=17	=17	=17	=17	=17	=17	=17	=17	=17	=17	=17	=17	=17	=17	=17	=17	=17	=17	=17	=17	=17
*Xtremolo	*	*	*	*	*tremolo	*	*	*	*	*	*	*	*	*	*	*	*	*	*	*	*	*	*	*
4E-\	.	.	8g`\L	.	16b-/LL	.	8gg\	.	2E-\	vi-	2B-\	vi-	2ee-\	vi-	2gg\	vi-	2.ee-\	.	2.gg\	.	2.ee-\	.	2.gg\	.
.	.	.	.	.	16b-/	.	.	.	.	.	.	.	.	.	.	.	.	.	.	.	.	.	.	.
.	.	.	8e-`\	.	16b-/	.	4gg\	.	.	.	.	.	.	.	.	.	.	.	.	.	.	.	.	.
.	.	.	.	.	16b-/	.	.	.	.	.	.	.	.	.	.	.	.	.	.	.	.	.	.	.
8e-\L	5_ 3_	.	8g`\	.	16b-/	.	.	.	.	.	.	.	.	.	.	.	.	.	.	.	.	.	.	.
.	.	.	.	.	16b-/	.	.	.	.	.	.	.	.	.	.	.	.	.	.	.	.	.	.	.
8B-\	.	.	8e-`\	.	16b-/	.	4gg\	.	.	.	.	.	.	.	.	.	.	.	.	.	.	.	.	.
.	.	.	.	.	16b-/	.	.	.	.	.	.	.	.	.	.	.	.	.	.	.	.	.	.	.
8e-\	.	.	8g`\	.	16b-/	.	.	.	4E-\	-si-	4B-\	-si-	4ee-\	-si-	4gg\	-si-	.	.	.	.	.	.	.	.
.	.	.	.	.	16b-/	.	.	.	.	.	.	.	.	.	.	.	.	.	.	.	.	.	.	.
8B-\J	.	.	8e-`\J	.	16b-/	.	8gg\	.	.	.	.	.	.	.	.	.	.	.	.	.	.	.	.	.
.	.	.	.	.	16b-/JJ	.	.	.	.	.	.	.	.	.	.	.	.	.	.	.	.	.	.	.
!	!	!	!	!	!	!	!	!	!LO:LB:g=original	!	!LO:LB:g=original	!	!	!	!	!	!	!	!	!	!	!	!	!
=18	=18	=18	=18	=18	=18	=18	=18	=18	=18	=18	=18	=18	=18	=18	=18	=18	=18	=18	=18	=18	=18	=18	=18	=18
*tremolo	*	*	*	*	*	*	*	*	*	*	*	*	*	*	*	*	*	*	*	*	*	*	*	*
8d\L	6_	.	8f`\L	.	16b-/LL	.	8ff\	.	4.B-\	-bi-	4.B-\	-bi-	4.dd\	-bi-	4.ff\	-bi-	2.b-/	.	2.ff\	.	2.dd\	.	2.ff\	.
.	.	.	.	.	16b-/	.	.	.	.	.	.	.	.	.	.	.	.	.	.	.	.	.	.	.
8B-\	.	.	8d`\	.	16b-/	.	4ff\	.	.	.	.	.	.	.	.	.	.	.	.	.	.	.	.	.
.	.	.	.	.	16b-/	.	.	.	.	.	.	.	.	.	.	.	.	.	.	.	.	.	.	.
8d\	.	.	8f`\	.	16b-/	.	.	.	.	.	.	.	.	.	.	.	.	.	.	.	.	.	.	.
.	.	.	.	.	16b-/	.	.	.	.	.	.	.	.	.	.	.	.	.	.	.	.	.	.	.
8B-\	.	.	8d`\	.	16b-/	.	4ff\	.	8B-\	-li-	8B-\	-li-	8dd\	-li-	8ff\	-li-	.	.	.	.	.	.	.	.
.	.	.	.	.	16b-/	.	.	.	.	.	.	.	.	.	.	.	.	.	.	.	.	.	.	.
8d\	.	.	8f`\	.	16b-/	.	.	.	4B-\	-um	4B-\	-um	4dd\	-um	4ff\	-um	.	.	.	.	.	.	.	.
.	.	.	.	.	16b-/	.	.	.	.	.	.	.	.	.	.	.	.	.	.	.	.	.	.	.
8B-\J	.	.	8d`\J	.	16b-/	.	8ff\	.	.	.	.	.	.	.	.	.	.	.	.	.	.	.	.	.
.	.	.	.	.	16b-/JJ	.	.	.	.	.	.	.	.	.	.	.	.	.	.	.	.	.	.	.
!	!	!	!	!	!LO:LB:g=original	!	!	!	!	!	!	!	!	!	!LO:LB:g=original	!	!	!	!	!	!	!	!LO:LB:g=original	!
!	!	!	!	!	!	!	!	!	!	!	!	!	!	!	!	!	!	!	!LO:LB:g=original	!	!	!	!	!
=19	=19	=19	=19	=19	=19	=19	=19	=19	=19	=19	=19	=19	=19	=19	=19	=19	=19	=19	=19	=19	=19	=19	=19	=19
8c\L	6|_	.	8e-`\L	.	16an/LL	.	8ee-\	.	2An\	o-	2f\	O-	2cc\	O-	2ee-\	O-	2.ff\	.	2.ff\	.	2.cc\	.	2.ee-\	.
.	.	.	.	.	16an/	.	.	.	.	.	.	.	.	.	.	.	.	.	.	.	.	.	.	.
8F\	.	.	8c`\	.	16an/	.	4ee-\	.	.	.	.	.	.	.	.	.	.	.	.	.	.	.	.	.
.	.	.	.	.	16an/	.	.	.	.	.	.	.	.	.	.	.	.	.	.	.	.	.	.	.
8c\	.	.	8e-`\	.	16an/	.	.	.	.	.	.	.	.	.	.	.	.	.	.	.	.	.	.	.
.	.	.	.	.	16an/	.	.	.	.	.	.	.	.	.	.	.	.	.	.	.	.	.	.	.
8F\	.	.	8c`\	.	16an/	.	4ee-\	.	.	.	.	.	.	.	.	.	.	.	.	.	.	.	.	.
.	.	.	.	.	16an/	.	.	.	.	.	.	.	.	.	.	.	.	.	.	.	.	.	.	.
8c\	.	.	8e-`\	.	16an/	.	.	.	4A\	-mni-	4f\	-mni-	4cc\	-mni-	4ee-\	-mni-	.	.	.	.	.	.	.	.
.	.	.	.	.	16an/	.	.	.	.	.	.	.	.	.	.	.	.	.	.	.	.	.	.	.
8F\J	.	.	8c`\J	.	16an/	.	8ee-\	.	.	.	.	.	.	.	.	.	.	.	.	.	.	.	.	.
.	.	.	.	.	16an/JJ	.	.	.	.	.	.	.	.	.	.	.	.	.	.	.	.	.	.	.
=20	=20	=20	=20	=20	=20	=20	=20	=20	=20	=20	=20	=20	=20	=20	=20	=20	=20	=20	=20	=20	=20	=20	=20	=20
8B-\L	5_ 3_	.	8d`\L	.	16b-/LL	.	8dd\	.	4B-\	-um	4f\	-um	4b-\	-um	4dd\	-um	2.b-/	.	2.ff\	.	2.b-\	.	2.dd\	.
.	.	.	.	.	16b-/	.	.	.	.	.	.	.	.	.	.	.	.	.	.	.	.	.	.	.
8F\	.	.	8B-`\	.	16b-/	.	4dd\	.	.	.	.	.	.	.	.	.	.	.	.	.	.	.	.	.
.	.	.	.	.	16b-/	.	.	.	.	.	.	.	.	.	.	.	.	.	.	.	.	.	.	.
8B-\	.	.	8d`\	.	16b-/	.	.	.	4r	.	4r	.	4r	.	4r	.	.	.	.	.	.	.	.	.
.	.	.	.	.	16b-/	.	.	.	.	.	.	.	.	.	.	.	.	.	.	.	.	.	.	.
8F\	.	.	8B-`\	.	16b-/	.	4dd\	.	.	.	.	.	.	.	.	.	.	.	.	.	.	.	.	.
.	.	.	.	.	16b-/	.	.	.	.	.	.	.	.	.	.	.	.	.	.	.	.	.	.	.
8B-\	.	.	8d`\	.	16b-/	.	.	.	4r	.	4r	.	4r	.	4r	.	.	.	.	.	.	.	.	.
.	.	.	.	.	16b-/	.	.	.	.	.	.	.	.	.	.	.	.	.	.	.	.	.	.	.
8F\J	.	.	8B-`\J	.	16b-/	.	8dd\	.	.	.	.	.	.	.	.	.	.	.	.	.	.	.	.	.
.	.	.	.	.	16b-/JJ	.	.	.	.	.	.	.	.	.	.	.	.	.	.	.	.	.	.	.
=21	=21	=21	=21	=21	=21||:	=21	=21	=21	=21	=21	=21	=21	=21	=21	=21	=21	=21	=21	=21	=21	=21	=21	=21	=21
*tremolo	*	*	*tremolo	*	*Xtremolo	*	*	*	*	*	*	*	*	*	*	*	*	*	*	*	*	*	*	*
8An\L	6	.	8c\L	.	8an/L	.	4cc\	.	2An\	Et	2e-\	et	2f\	et	2cc\	et	2.ff\	.	2.ff\	.	4a\	.	2.ff\	.
8An\	.	.	8c\	.	8f/	.	.	.	.	.	.	.	.	.	.	.	.	.	.	.	.	.	.	.
8An\	.	.	8c\	.	8c/	.	4.ff\	.	.	.	.	.	.	.	.	.	.	.	.	.	2cc\	.	.	.
8An\	.	.	8c\	.	8f/	.	.	.	.	.	.	.	.	.	.	.	.	.	.	.	.	.	.	.
8An\	.	.	8c\	.	8c/	.	.	.	4A\	in	4e-\	in	4f\	in	4cc\	in	.	.	.	.	.	.	.	.
8An\J	.	.	8c\J	.	8f/J	.	8ee-\	.	.	.	.	.	.	.	.	.	.	.	.	.	.	.	.	.
=22	=22	=22	=22	=22	=22	=22	=22	=22	=22	=22	=22	=22	=22	=22	=22	=22	=22	=22	=22	=22	=22	=22	=22	=22
8B-\L	5 3	.	8d\L	.	8B-/L	.	16dd\LL	.	2B-\	vi-	2d\	vi-	2f\	vi-	2dd\	vi-	2.b-/	.	2.ff\	.	2.b-\	.	2.dd\	.
.	.	.	.	.	.	.	16b-`\	.	.	.	.	.	.	.	.	.	.	.	.	.	.	.	.	.
8B-\	.	.	8d\	.	8f/	.	16cc`\	.	.	.	.	.	.	.	.	.	.	.	.	.	.	.	.	.
.	.	.	.	.	.	.	16dd`\JJ	.	.	.	.	.	.	.	.	.	.	.	.	.	.	.	.	.
8B-\	.	.	8d\	.	8d/	.	16ee-`\LL	.	.	.	.	.	.	.	.	.	.	.	.	.	.	.	.	.
.	.	.	.	.	.	.	16ff`\	.	.	.	.	.	.	.	.	.	.	.	.	.	.	.	.	.
8B-\	.	.	8d\	.	8f/	.	16gg`\	.	.	.	.	.	.	.	.	.	.	.	.	.	.	.	.	.
.	.	.	.	.	.	.	16aan`\JJ	.	.	.	.	.	.	.	.	.	.	.	.	.	.	.	.	.
!	!	!	!	!	!	!	!LO:TX:t=P:problem:mixed beam	!	!	!	!	!	!	!	!	!	!	!	!	!	!	!	!	!
8B-\	.	.	8d\	.	8d/	.	8bb-\L	.	4B-\	-si-	4B-\	-si-	4f\	-si-	4dd\	-si-	.	.	.	.	.	.	.	.
8B-\J	.	.	8d\J	.	8f/J	.	8b-\J	.	.	.	.	.	.	.	.	.	.	.	.	.	.	.	.	.
!	!	!	!	!	!	!	!LO:LB:g=original	!	!	!	!	!	!	!	!	!	!	!	!	!	!	!	!	!
=23	=23	=23	=23	=23	=23:||	=23	=23	=23	=23	=23	=23	=23	=23	=23	=23	=23	=23	=23	=23	=23	=23	=23	=23	=23
!	!	!	!	!	!LO:TX:t=P:problem: takty 23 i 24 repetycja	!	!	!	!	!	!	!	!	!	!	!	!	!	!	!	!	!	!	!
8An\L	6	.	8c\L	.	8an/Lyy	.	4cc\	.	2A-\	-bi-	2e-\	-bi-	2f\	-bi-	2cc\	-bi-	2.ff\	.	2.ff\	.	4a\	.	4cc\	.
8An\	.	.	8c\	.	8f/yy	.	.	.	.	.	.	.	.	.	.	.	.	.	.	.	.	.	.	.
8An\	.	.	8c\	.	8c/yy	.	4.ff\	.	.	.	.	.	.	.	.	.	.	.	.	.	2cc\	.	2ff\	.
8An\	.	.	8c\	.	8f/yy	.	.	.	.	.	.	.	.	.	.	.	.	.	.	.	.	.	.	.
8An\	.	.	8c\	.	8c/yy	.	.	.	4A-\	-li-	4e-\	-li-	4f\	-li-	4cc\	-li-	.	.	.	.	.	.	.	.
8An\J	.	.	8c\J	.	8f/Jyy	.	8ee-\	.	.	.	.	.	.	.	.	.	.	.	.	.	.	.	.	.
=24	=24	=24	=24	=24	=24	=24	=24	=24	=24	=24	=24	=24	=24	=24	=24	=24	=24	=24	=24	=24	=24	=24	=24	=24
8B-\L	3	.	8d\L	.	8B-/Lyy	.	16dd`\LL	.	4B-\	-um,	4d\	-um,	4f\	-um,	4dd\	-um,	2.b-/	.	2.ff\	.	2.b-\	.	2.dd\	.
.	.	.	.	.	.	.	16b-`\	.	.	.	.	.	.	.	.	.	.	.	.	.	.	.	.	.
8B-\	.	.	8d\	.	8f/yy	.	16cc`\	.	.	.	.	.	.	.	.	.	.	.	.	.	.	.	.	.
.	.	.	.	.	.	.	16dd`\JJ	.	.	.	.	.	.	.	.	.	.	.	.	.	.	.	.	.
8B-\	.	.	8d\	.	8d/yy	.	16ee-`\LL	.	4r	.	4r	.	4r	.	4r	.	.	.	.	.	.	.	.	.
.	.	.	.	.	.	.	16ff`\	.	.	.	.	.	.	.	.	.	.	.	.	.	.	.	.	.
8B-\	.	.	8d\	.	8f/yy	.	16gg`\	.	.	.	.	.	.	.	.	.	.	.	.	.	.	.	.	.
.	.	.	.	.	.	.	16aan`\JJ	.	.	.	.	.	.	.	.	.	.	.	.	.	.	.	.	.
!	!	!	!	!	!	!	!LO:TX:t=P:problem: mixed beam	!	!	!	!	!	!	!	!	!	!	!	!	!	!	!	!	!
8B-\	.	.	8d\	.	8d/yy	.	8bb-`\L	.	4r	.	4r	.	4r	.	4r	.	.	.	.	.	.	.	.	.
8B-\J	.	.	8d\J	.	8f/Jyy	.	8b-`\J	.	.	.	.	.	.	.	.	.	.	.	.	.	.	.	.	.
!LO:LB:g=original	!	!	!	!	!	!	!	!	!	!	!	!	!	!	!	!	!	!	!	!	!	!	!	!
=25	=25	=25	=25	=25	=25||:	=25	=25	=25	=25	=25	=25	=25	=25	=25	=25	=25	=25	=25	=25	=25	=25	=25	=25	=25
*Xtremolo	*	*	*	*	*tremolo	*	*	*	*	*	*	*	*	*	*	*	*	*	*	*	*	*	*	*
8F\L	n	.	8c\L	.	16An/LL	.	8cc\	.	2.r	.	2.r	.	2.r	.	2.r	.	4ff\	.	4ff\	.	4a\	.	4cc\	.
.	.	.	.	.	16An/	.	.	.	.	.	.	.	.	.	.	.	.	.	.	.	.	.	.	.
8F\J	.	.	8c\	.	16An/	.	4ff\	.	.	.	.	.	.	.	.	.	.	.	.	.	.	.	.	.
.	.	.	.	.	16An/JJ	.	.	.	.	.	.	.	.	.	.	.	.	.	.	.	.	.	.	.
*tremolo	*	*	*	*	*	*	*	*	*	*	*	*	*	*	*	*	*	*	*	*	*	*	*	*
8An\L	6	.	8c\	.	16c/LL	.	.	.	.	.	.	.	.	.	.	.	4ff\	.	4ff\	.	4cc\	.	4ff\	.
.	.	.	.	.	16c/	.	.	.	.	.	.	.	.	.	.	.	.	.	.	.	.	.	.	.
8An\	.	.	8c\	.	16c/	.	4ff\	.	.	.	.	.	.	.	.	.	.	.	.	.	.	.	.	.
.	.	.	.	.	16c/JJ	.	.	.	.	.	.	.	.	.	.	.	.	.	.	.	.	.	.	.
8An\	.	.	8c\	.	16c/LL	.	.	.	.	.	.	.	.	.	.	.	4ff\	.	4ff\	.	4cc\	.	4ff\	.
.	.	.	.	.	16c/	.	.	.	.	.	.	.	.	.	.	.	.	.	.	.	.	.	.	.
8An\J	.	.	8c\J	.	16c/	.	8ff\	.	.	.	.	.	.	.	.	.	.	.	.	.	.	.	.	.
.	.	.	.	.	16c/JJ	.	.	.	.	.	.	.	.	.	.	.	.	.	.	.	.	.	.	.
!	!	!	!LO:LB:g=original	!	!	!	!	!	!	!	!	!	!	!	!	!	!	!	!	!	!	!	!	!
=26	=26	=26	=26	=26	=26	=26	=26	=26	=26	=26	=26	=26	=26	=26	=26	=26	=26	=26	=26	=26	=26	=26	=26	=26
*Xtremolo	*	*	*	*	*	*	*	*	*	*	*	*	*	*	*	*	*	*	*	*	*	*	*	*
8G\L	6|	.	8c\L	.	16c/LL	.	8een\L	.	2.r	.	2.r	.	2.r	.	2.r	.	2.gg\	.	4r	.	4cc\	.	4eeX\	.
.	.	.	.	.	16c/	.	.	.	.	.	.	.	.	.	.	.	.	.	.	.	.	.	.	.
8G\	.	.	8c\	.	16c/	.	8bb-\J	.	.	.	.	.	.	.	.	.	.	.	.	.	.	.	.	.
.	.	.	.	.	16c/JJ	.	.	.	.	.	.	.	.	.	.	.	.	.	.	.	.	.	.	.
8En\	5_ 3_	.	8c\	.	16G/LL	.	4.bb-\	.	.	.	.	.	.	.	.	.	.	.	4gg\	.	2cc\	.	2gg\	.
.	.	.	.	.	16G/	.	.	.	.	.	.	.	.	.	.	.	.	.	.	.	.	.	.	.
8E\	.	.	8c\	.	16G/	.	.	.	.	.	.	.	.	.	.	.	.	.	.	.	.	.	.	.
.	.	.	.	.	16G/	.	.	.	.	.	.	.	.	.	.	.	.	.	.	.	.	.	.	.
8C\	.	.	8c\	.	16G/	.	.	.	.	.	.	.	.	.	.	.	.	.	4gg\	.	.	.	.	.
.	.	.	.	.	16G/	.	.	.	.	.	.	.	.	.	.	.	.	.	.	.	.	.	.	.
8C\J	.	.	8c\J	.	16G/	.	16gg\LL	.	.	.	.	.	.	.	.	.	.	.	.	.	.	.	.	.
.	.	.	.	.	16G/JJ	.	16ee\JJ	.	.	.	.	.	.	.	.	.	.	.	.	.	.	.	.	.
!	!	!	!	!	!	!	!	!	!	!	!	!	!	!	!	!	!LO:LB:g=original	!	!	!	!	!	!	!
=27	=27	=27	=27	=27	=27:||	=27	=27	=27	=27	=27	=27	=27	=27	=27	=27	=27	=27	=27	=27	=27	=27	=27	=27	=27
!	!	!	!	!	!LO:TX:t=P:problem: takty 27 i 28 repetycja	!	!	!	!	!	!	!	!	!	!	!	!	!	!	!	!	!	!	!
8F\L	n	.	8c\L	.	16An/LLyy	.	8ff\	.	2.r	.	2.r	.	2.r	.	2.r	.	4r	.	4ff\	.	4cc\	.	4ff\	.
.	.	.	.	.	16An/yy	.	.	.	.	.	.	.	.	.	.	.	.	.	.	.	.	.	.	.
8F\J	.	.	8c\	.	16An/yy	.	4ff\	.	.	.	.	.	.	.	.	.	.	.	.	.	.	.	.	.
.	.	.	.	.	16An/JJyy	.	.	.	.	.	.	.	.	.	.	.	.	.	.	.	.	.	.	.
*tremolo	*	*	*	*	*	*	*	*	*	*	*	*	*	*	*	*	*	*	*	*	*	*	*	*
8An\L	6	.	8c\	.	16c/LLyy	.	.	.	.	.	.	.	.	.	.	.	4ff\	.	4ff\	.	4cc\	.	4ff\	.
.	.	.	.	.	16c/yy	.	.	.	.	.	.	.	.	.	.	.	.	.	.	.	.	.	.	.
8An\	.	.	8c\	.	16c/yy	.	4ff\	.	.	.	.	.	.	.	.	.	.	.	.	.	.	.	.	.
.	.	.	.	.	16c/JJyy	.	.	.	.	.	.	.	.	.	.	.	.	.	.	.	.	.	.	.
8An\	.	.	8c\	.	16c/LLyy	.	.	.	.	.	.	.	.	.	.	.	4ff\	.	4ff\	.	4cc\	.	4ff\	.
.	.	.	.	.	16c/yy	.	.	.	.	.	.	.	.	.	.	.	.	.	.	.	.	.	.	.
8An\J	.	.	8c\J	.	16c/yy	.	8ff\	.	.	.	.	.	.	.	.	.	.	.	.	.	.	.	.	.
.	.	.	.	.	16c/JJyy	.	.	.	.	.	.	.	.	.	.	.	.	.	.	.	.	.	.	.
!	!	!	!	!	!	!	!	!	!	!	!	!	!	!	!	!	!	!	!	!	!LO:LB:g=original	!	!	!
=28	=28	=28	=28	=28	=28	=28	=28	=28	=28	=28	=28	=28	=28	=28	=28	=28	=28	=28	=28	=28	=28	=28	=28	=28
*Xtremolo	*	*	*	*	*	*	*	*	*	*	*	*	*	*	*	*	*	*	*	*	*	*	*	*
8G\L	6|	.	8c\L	.	16c/LLyy	.	8een\L	.	2.r	.	2.r	.	2.r	.	2.r	.	2.gg\	.	4r	.	4cc\	.	4eeX\	.
.	.	.	.	.	16c/yy	.	.	.	.	.	.	.	.	.	.	.	.	.	.	.	.	.	.	.
8G\	.	.	8c\	.	16c/yy	.	8bb-\J	.	.	.	.	.	.	.	.	.	.	.	.	.	.	.	.	.
.	.	.	.	.	16c/JJyy	.	.	.	.	.	.	.	.	.	.	.	.	.	.	.	.	.	.	.
8En\	5_ 3_	.	8c\	.	16G/LLyy	.	4.bb-\	.	.	.	.	.	.	.	.	.	.	.	4gg\	.	2cc\	.	2gg\	.
.	.	.	.	.	16G/yy	.	.	.	.	.	.	.	.	.	.	.	.	.	.	.	.	.	.	.
8E\	.	.	8c\	.	16G/yy	.	.	.	.	.	.	.	.	.	.	.	.	.	.	.	.	.	.	.
.	.	.	.	.	16G/yy	.	.	.	.	.	.	.	.	.	.	.	.	.	.	.	.	.	.	.
8C\	.	.	8c\	.	16G/yy	.	.	.	.	.	.	.	.	.	.	.	.	.	4gg\	.	.	.	.	.
.	.	.	.	.	16G/yy	.	.	.	.	.	.	.	.	.	.	.	.	.	.	.	.	.	.	.
8C\J	.	.	8c\J	.	16G/yy	.	(16gg\LL	.	.	.	.	.	.	.	.	.	.	.	.	.	.	.	.	.
.	.	.	.	.	16G/JJyy	.	16ee\JJ)	.	.	.	.	.	.	.	.	.	.	.	.	.	.	.	.	.
=29	=29	=29	=29	=29	=29	=29	=29	=29	=29	=29	=29	=29	=29	=29	=29	=29	=29	=29	=29	=29	=29	=29	=29	=29
*	*	*	*Xtremolo	*	*	*	*	*	*	*	*	*	*	*	*	*	*	*	*	*	*	*	*	*
8F\L	.	.	8F/L	.	16An/LL	.	4ff\	.	2.r	.	2.r	.	2.r	.	2.r	.	4ff\	.	4ff\	.	2cc\	.	2ff\	.
.	.	.	.	.	16An/	.	.	.	.	.	.	.	.	.	.	.	.	.	.	.	.	.	.	.
8F\	.	.	8F/	.	16An/	.	.	.	.	.	.	.	.	.	.	.	.	.	.	.	.	.	.	.
.	.	.	.	.	16An/JJ	.	.	.	.	.	.	.	.	.	.	.	.	.	.	.	.	.	.	.
8An\	6	.	8An/	.	16f/LL	.	8r	.	.	.	.	.	.	.	.	.	4r	.	4r	.	.	.	.	.
.	.	.	.	.	16f/	.	.	.	.	.	.	.	.	.	.	.	.	.	.	.	.	.	.	.
8A\	.	.	8A/	.	16f/	.	8cc`\L	.	.	.	.	.	.	.	.	.	.	.	.	.	.	.	.	.
.	.	.	.	.	16f/JJ	.	.	.	.	.	.	.	.	.	.	.	.	.	.	.	.	.	.	.
8c\	n	.	8c/	.	16g/LL	.	(8gg\	.	.	.	.	.	.	.	.	.	4gg\	.	4gg\	.	4cc\	.	4gg\	.
.	.	.	.	.	16g/	.	.	.	.	.	.	.	.	.	.	.	.	.	.	.	.	.	.	.
8c\J	.	.	8c/J	.	16g/	.	8een\J)	.	.	.	.	.	.	.	.	.	.	.	.	.	.	.	.	.
.	.	.	.	.	16g/JJ	.	.	.	.	.	.	.	.	.	.	.	.	.	.	.	.	.	.	.
!	!	!	!	!	!	!	!	!	!	!	!	!	!	!	!	!	!	!	!LO:LB:g=original	!	!	!	!	!
=30	=30	=30	=30	=30	=30	=30	=30	=30	=30	=30	=30	=30	=30	=30	=30	=30	=30	=30	=30	=30	=30	=30	=30	=30
8F\L	.	.	8F/L	.	16an/LL	.	4ff\	.	2.r	.	2.r	.	2.r	.	2.r	.	4ff\	.	4ff\	.	2cc\	.	2ff\	.
.	.	.	.	.	16an/	.	.	.	.	.	.	.	.	.	.	.	.	.	.	.	.	.	.	.
8F\	.	.	8F/	.	16an/	.	.	.	.	.	.	.	.	.	.	.	.	.	.	.	.	.	.	.
.	.	.	.	.	16an/JJ	.	.	.	.	.	.	.	.	.	.	.	.	.	.	.	.	.	.	.
8An\	6	.	8An/	.	16g/LL	.	8r	.	.	.	.	.	.	.	.	.	4r	.	4r	.	.	.	.	.
.	.	.	.	.	16g/	.	.	.	.	.	.	.	.	.	.	.	.	.	.	.	.	.	.	.
8A\	.	.	8A/	.	16g/	.	8cc`\L	.	.	.	.	.	.	.	.	.	.	.	.	.	.	.	.	.
.	.	.	.	.	16g/JJ	.	.	.	.	.	.	.	.	.	.	.	.	.	.	.	.	.	.	.
8c\	n	.	8c/	.	16g/LL	.	(8gg\	.	.	.	.	.	.	.	.	.	4gg\	.	4gg\	.	4cc\	.	4gg\	.
.	.	.	.	.	16g/	.	.	.	.	.	.	.	.	.	.	.	.	.	.	.	.	.	.	.
8c\J	.	.	8c/J	.	16g/	.	8een\J)	.	.	.	.	.	.	.	.	.	.	.	.	.	.	.	.	.
.	.	.	.	.	16g/JJ	.	.	.	.	.	.	.	.	.	.	.	.	.	.	.	.	.	.	.
!	!	!	!	!	!	!	!	!	!	!	!	!	!	!	!	!	!	!	!	!	!	!	!LO:LB:g=original	!
=31	=31	=31	=31	=31	=31	=31	=31	=31	=31	=31	=31	=31	=31	=31	=31	=31	=31	=31	=31	=31	=31	=31	=31	=31
4F\	5_ 3_	.	4c/	.	4an/	.	8ff`\L	.	2.r	.	2.r	.	2.r	.	2.r	.	4ff\	.	4ff\	.	4cc\	.	4ff\	.
.	.	.	.	.	.	.	8ff`\J	.	.	.	.	.	.	.	.	.	.	.	.	.	.	.	.	.
!	!	!	!	!	!	!	!LO:LB:g=original	!	!	!	!	!	!	!	!	!	!	!	!	!	!	!	!	!
4F\	.	.	4c/	.	4a/	.	8cc`\L	.	.	.	.	.	.	.	.	.	4ff\	f	4ff\	.	4cc\	.	4ff\	.
.	.	.	.	.	.	.	8ff`\	.	.	.	.	.	.	.	.	.	.	.	.	.	.	.	.	.
4F\	.	.	4c/	.	4a/	.	8an`\	.	.	.	.	.	.	.	.	.	4ff\	.	4ff\	.	4cc\	.	4ff\	.
.	.	.	.	.	.	.	8cc`\J	.	.	.	.	.	.	.	.	.	.	.	.	.	.	.	.	.
!	!	!	!	!	!LO:LB:g=original	!	!	!	!	!	!	!	!	!	!	!	!	!	!	!	!	!	!	!
=32	=32	=32	=32	=32	=32	=32	=32	=32	=32	=32	=32	=32	=32	=32	=32	=32	=32	=32	=32	=32	=32	=32	=32	=32
4F\	.	.	4c/	.	4a-/	.	4f/	.	2.r	.	2.r	.	2.r	.	2.r	.	4ff\	.	4ff\	.	4cc\	.	4ff\	.
4r	.	.	4r	.	4r	.	4r	.	.	.	.	.	.	.	.	.	4r	.	4r	.	4r	.	4r	.
!	!	!	!	!	!	!	!	!	!	!	!	!	!	!	!	!	!	!	!	!	!	!	!	!
4r	.	.	4r	.	4r	.	4r	.	.	.	.	.	.	.	.	.	4r	.	4r	.	4dd\	.	4ff\	.
!	!	!	!	!	!	!	!	!	!	!	!	!	!LO:LB:g=original	!	!	!	!	!	!	!	!	!	!	!
=33	=33	=33	=33	=33	=33	=33	=33	=33	=33	=33	=33	=33	=33	=33	=33	=33	=33	=33	=33	=33	=33	=33	=33	=33
!	!	!	!	!	!	!	!	!	!	!	!	!	!	!	!	!	!	!	!	!	!LO:TX:a:t=Solo	!	!	!
!	!	!	!LO:TX:a:t=4	!	!	!	!LO:TX:a:t=4	!	!	!	!	!	!LO:TX:a:t=Solo	!	!LO:TX:a:t=Solo	!	!LO:TX:a:t=11	!	!LO:TX:a:t=11	!	!	!	!LO:TX:a:t=Solo	!
2.r	.	.	2.r	.	2.r	.	2.r	.	2.r	.	2.r	.	(4dd-X\	Et	(4ff\	Et	2.r	.	2.r	.	4dd\	p	4ff\	p
.	.	.	.	.	.	.	.	.	.	.	.	.	4ee-\)	.	4gg\)	.	.	.	.	.	4ee-\	.	4gg\	.
.	.	.	.	.	.	.	.	.	.	.	.	.	4cc\	in	4ee-\	in	.	.	.	.	4cc\	.	4ee-\	.
=34	=34	=34	=34	=34	=34	=34	=34	=34	=34	=34	=34	=34	=34	=34	=34	=34	=34	=34	=34	=34	=34	=34	=34	=34
!LO:TX:b:t=pedale	!	!	!	!	!	!	!	!	!	!	!	!	!	!	!	!	!	!	!	!	!	!	!	!
!LO:TX:a:t=Solo	!	!	!	!	!	!	!	!	!	!	!	!	!	!	!	!	!	!	!	!	!	!	!	!
2.F\	.	.	2.r	.	2.r	.	2.r	.	2.r	.	2.r	.	(4an\	u-	(4cc\	u-	2.r	.	2.r	.	4a\	.	4cc\	.
.	.	.	.	.	.	.	.	.	.	.	.	.	4b-\)	.	4dd\)	.	.	.	.	.	4b-\	.	4dd\	.
.	.	.	.	.	.	.	.	.	.	.	.	.	4cc\	-num	4ee-\	-num	.	.	.	.	4cc\	.	4ee-\	.
=35	=35	=35	=35	=35	=35	=35	=35	=35	=35	=35	=35	=35	=35	=35	=35	=35	=35	=35	=35	=35	=35	=35	=35	=35
2.B-\	.	.	2.r	.	2.r	.	2.r	.	2.r	.	2.r	.	(4cc#X\	Do-	(4een\	Do-	2.r	.	2.r	.	4cc#X\	.	4eeX\	.
.	.	.	.	.	.	.	.	.	.	.	.	.	4dd\)	.	4ff\)	.	.	.	.	.	4dd\	.	4ff\	.
.	.	.	.	.	.	.	.	.	.	.	.	.	4b-\	-mi-	4dd\	-mi-	.	.	.	.	4f/	.	4dd\	.
!LO:LB:g=original	!	!	!	!	!	!	!	!	!	!	!	!	!	!	!LO:LB:g=original	!	!	!	!	!	!LO:LB:g=original	!	!	!
=36	=36	=36	=36	=36	=36	=36	=36	=36	=36	=36	=36	=36	=36	=36	=36	=36	=36	=36	=36	=36	=36	=36	=36	=36
4BB-/	.	.	2.r	.	2.r	.	2.r	.	2.r	.	2.r	.	4f\	-num	4b-\	-num	2.r	.	2.r	.	4d/	.	4b-\	.
4r	.	.	.	.	.	.	.	.	.	.	.	.	4r	.	4r	.	.	.	.	.	4b-\	.	4dd\	.
4r	.	.	.	.	.	.	.	.	.	.	.	.	4r	.	4r	.	.	.	.	.	4b-\	.	4dd\	.
*clefC1	*	*	*	*	*	*	*	*	*	*	*	*	*	*	*	*	*	*	*	*	*	*	*	*
!	!	!	!LO:LB:g=original	!	!	!	!	!	!	!	!LO:LB:g=original	!	!	!	!	!	!	!	!	!	!	!	!	!
=37	=37	=37	=37	=37	=37	=37	=37	=37	=37	=37	=37	=37	=37	=37	=37	=37	=37	=37	=37	=37	=37	=37	=37	=37
*Xtremolo	*	*	*tremolo	*	*	*	*	*	*	*	*	*	*	*	*	*	*	*	*	*	*	*	*	*
!	!	!	!	!	!	!	!	!LO:DY:t=p.	!	!	!	!	!	!	!	!	!	!	!	!	!	!	!	!
8f\L	7_ 5_	.	8F/L	p	2c/	p	(2e-/	p	2.r	.	2f\	Je-	2cc\	Je-	2ee-X\	Je-	2.r	.	2.r	.	2cc\	.	2ee-\	.
8f\	.	.	8F/	.	.	.	.	.	.	.	.	.	.	.	.	.	.	.	.	.	.	.	.	.
8f\	.	.	8F/	.	.	.	.	.	.	.	.	.	.	.	.	.	.	.	.	.	.	.	.	.
8f\	.	.	8F/	.	.	.	.	.	.	.	.	.	.	.	.	.	.	.	.	.	.	.	.	.
8f\	6_ 4_	.	8F/	.	4B-/	.	4d/)	.	.	.	4f\	-sum	4b-\	-sum	4dd\	-sum	.	.	.	.	4r	.	4r	.
8f\J	.	.	8F/J	.	.	.	.	.	.	.	.	.	.	.	.	.	.	.	.	.	.	.	.	.
=38	=38	=38	=38	=38	=38	=38	=38	=38	=38	=38	=38	=38	=38	=38	=38	=38	=38	=38	=38	=38	=38	=38	=38	=38
!	!	!	!	!	!	!	!	!	!	!	!	!	!	!	!	!	!	!	!	!	!	!	!LO:TX:a:t=2	!
8f\L	5_ n_	.	2.F/	.	4An/	.	(4c/	.	2.r	.	2f\	X-	(4an\	Chri-	(4cc\	Chri-	2.r	.	2.r	.	2.r	.	2.r	.
8f\	.	.	.	.	.	.	.	.	.	.	.	.	.	.	.	.	.	.	.	.	.	.	.	.
8f\	6_ 4_	.	.	.	4B-/	.	4d/)	.	.	.	.	.	4b-\)	.	4dd\)	.	.	.	.	.	.	.	.	.
8f\	.	.	.	.	.	.	.	.	.	.	.	.	.	.	.	.	.	.	.	.	.	.	.	.
!	!	!	!	!	!	!	!	!	!	!	!	!	!	!	!	!	!	!	!	!	!	!	!	!
8f\	7_ 5_	.	.	.	4c/	.	4e-`/	.	.	.	4f\	-stum	4cc\	-stum	4ee-\	-ſtum	.	.	.	.	.	.	.	.
8f\J	.	.	.	.	.	.	.	.	.	.	.	.	.	.	.	.	.	.	.	.	.	.	.	.
=39	=39	=39	=39	=39	=39	=39	=39	=39	=39	=39	=39	=39	=39	=39	=39	=39	=39	=39	=39	=39	=39	=39	=39	=39
*tremolo	*	*	*	*	*	*	*	*	*	*	*	*	*	*	*	*	*	*	*	*	*	*	*	*
8f\L	8 6	.	2.F/	f	2d/	.	2f/	.	2.r	.	2f\	Fi-	2dd\	Fi-	2ff\	Fi-	2.r	.	2.r	.	2.r	.	2.r	.
8f\	.	.	.	.	.	.	.	.	.	.	.	.	.	.	.	.	.	.	.	.	.	.	.	.
8f\	.	.	.	.	.	.	.	.	.	.	.	.	.	.	.	.	.	.	.	.	.	.	.	.
8f\J	.	.	.	.	.	.	.	.	.	.	.	.	.	.	.	.	.	.	.	.	.	.	.	.
*Xtremolo	*	*	*	*	*	*	*	*	*	*	*	*	*	*	*	*	*	*	*	*	*	*	*	*
8f\L	7 5	.	.	.	4c/	.	4e-/	.	.	.	4f\	-li-	4cc\	-li-	4ee-\	-li-	.	.	.	.	.	.	.	.
8f\J	.	.	.	.	.	.	.	.	.	.	.	.	.	.	.	.	.	.	.	.	.	.	.	.
!	!	!	!	!	!	!	!	!	!	!	!	!	!LO:LB:g=original	!	!	!	!	!	!	!	!	!	!	!
=40	=40	=40	=40	=40	=40	=40	=40	=40	=40	=40	=40	=40	=40	=40	=40	=40	=40	=40	=40	=40	=40	=40	=40	=40
*tremolo	*	*	*	*	*Xtremolo	*	*	*	*	*	*	*	*	*	*	*	*	*	*	*	*	*	*	*
8f\L	6 4	.	2.F/	.	(8B-/L	.	(8d/L	.	2.r	.	4f\	-um	4b-\	-um	4dd\	-um	2.r	.	2.r	.	4r	.	4r	.
8f\	.	.	.	.	8d/	.	8f/)	.	.	.	.	.	.	.	.	.	.	.	.	.	.	.	.	.
8f\	.	.	.	.	8B-/	.	(8d/	.	.	.	4r	.	4r	.	4r	.	.	.	.	.	4dd\	.	4bb-\	.
8f\	.	.	.	.	8d/	.	8f/)	.	.	.	.	.	.	.	.	.	.	.	.	.	.	.	.	.
8f\	.	.	.	.	8B-/	.	(8d/	.	.	.	4r	.	4r	.	4r	.	.	.	.	.	4dd\	.	4bb-\	.
8f\J	.	.	.	.	8d/J)	.	8f/J)	.	.	.	.	.	.	.	.	.	.	.	.	.	.	.	.	.
=41	=41	=41	=41	=41	=41	=41	=41	=41	=41	=41	=41	=41	=41	=41	=41	=41	=41	=41	=41	=41	=41	=41	=41	=41
*tremolo	*	*	*	*	*	*	*	*	*	*	*	*	*	*	*	*	*	*	*	*	*	*	*	*
8f\L	7 5	.	2.F/	.	2c/	.	2e-/	.	2.r	.	2f\	De-	2cc\	De-	2ee-\	De-	2.r	.	2.r	.	2cc\	.	2ee-\	.
8f\	.	.	.	.	.	.	.	.	.	.	.	.	.	.	.	.	.	.	.	.	.	.	.	.
8f\	.	.	.	.	.	.	.	.	.	.	.	.	.	.	.	.	.	.	.	.	.	.	.	.
8f\J	.	.	.	.	.	.	.	.	.	.	.	.	.	.	.	.	.	.	.	.	.	.	.	.
*Xtremolo	*	*	*	*	*	*	*	*	*	*	*	*	*	*	*	*	*	*	*	*	*	*	*	*
8f\L	6 4	.	.	.	4B-/	.	4d/	.	.	.	4f\	-i	4b-\	-i	4dd\	-i	.	.	.	.	4b-\	.	4dd\	.
8f\J	.	.	.	.	.	.	.	.	.	.	.	.	.	.	.	.	.	.	.	.	.	.	.	.
!	!	!	!	!	!	!	!	!	!	!	!	!	!	!	!	!	!	!	!	!	!	!	!LO:LB:g=original	!
=42	=42	=42	=42	=42	=42	=42	=42	=42	=42	=42	=42	=42	=42	=42	=42	=42	=42	=42	=42	=42	=42	=42	=42	=42
8f\L	5_ n_	.	2.F/	.	4An/	.	(4c/	.	2.r	.	2f\	u-	(4an\	u-	(4cc\	u-	2.r	.	2.r	.	4a-\	.	4cc\	.
8f\	.	.	.	.	.	.	.	.	.	.	.	.	.	.	.	.	.	.	.	.	.	.	.	.
8f\	6_ 4_	.	.	.	4B-/	.	4d/)	.	.	.	.	.	4b-\)	.	4dd\)	.	.	.	.	.	4b-\	.	4dd\	.
8f\	.	.	.	.	.	.	.	.	.	.	.	.	.	.	.	.	.	.	.	.	.	.	.	.
8f\	7_ 5_	.	.	.	4c/	.	4e-`/	.	.	.	4f\	-ni-	4cc\	-ni	4ee-\	-ni	.	.	.	.	4cc\	.	4ee-\	.
8f\J	.	.	.	.	.	.	.	.	.	.	.	.	.	.	.	.	.	.	.	.	.	.	.	.
=43	=43	=43	=43	=43	=43	=43	=43	=43	=43	=43	=43	=43	=43	=43	=43	=43	=43	=43	=43	=43	=43	=43	=43	=43
*tremolo	*	*	*	*	*	*	*	*	*	*	*	*	*	*	*	*	*	*	*	*	*	*	*	*
8f\L	8 6	.	2.F/	.	2d/	.	2f/	.	2.r	.	2f\	-ge-	2dd\	ge-	2ff\	ge-	2.r	.	2.r	.	2dd\	.	2ff\	.
8f\	.	.	.	.	.	.	.	.	.	.	.	.	.	.	.	.	.	.	.	.	.	.	.	.
8f\	.	.	.	.	.	.	.	.	.	.	.	.	.	.	.	.	.	.	.	.	.	.	.	.
8f\J	.	.	.	.	.	.	.	.	.	.	.	.	.	.	.	.	.	.	.	.	.	.	.	.
*Xtremolo	*	*	*	*	*	*	*	*	*	*	*	*	*	*	*	*	*	*	*	*	*	*	*	*
8f\L	7 5	.	.	.	4c/	.	4e-/	.	.	.	4f\	-ni-	4cc\	-ni-	4ee-\	-ni-	.	.	.	.	4cc\	.	4ee-\	.
8f\J	.	.	.	.	.	.	.	.	.	.	.	.	.	.	.	.	.	.	.	.	.	.	.	.
!	!	!	!	!	!LO:LB:g=original	!	!	!	!	!	!	!	!	!	!	!	!	!	!	!	!	!	!	!
=44	=44	=44	=44	=44	=44	=44	=44	=44	=44	=44	=44	=44	=44	=44	=44	=44	=44	=44	=44	=44	=44	=44	=44	=44
*tremolo	*	*	*	*	*	*	*	*	*	*	*	*	*	*	*	*	*	*	*	*	*	*	*	*
8f\L	6 4	.	2.F/	.	4B-/	.	4d/	.	2.r	.	4f\	-tum,	4b-\	-tum,	4dd\	-tum,	4r	.	4r	.	4b-\	.	4dd\	.
8f\	.	.	.	.	.	.	.	.	.	.	.	.	.	.	.	.	.	.	.	.	.	.	.	.
8f\	.	.	.	.	8b-\L	.	(8dd\L	.	.	.	4r	.	4r	.	4r	.	4b-/	.	4bb-\	.	4dd\	.	4bb-\	.
8f\	.	.	.	.	8dd\	.	8ff\)	.	.	.	.	.	.	.	.	.	.	.	.	.	.	.	.	.
8f\	.	.	.	.	8b-\	.	(8dd\	.	.	.	4r	.	4r	.	4r	.	4b-/	.	4bb-\	.	4dd\	.	4bb-\	.
8f\J	.	.	.	.	8dd\J	.	8ff\J)	.	.	.	.	.	.	.	.	.	.	.	.	.	.	.	.	.
*clefF4	*	*	*	*	*	*	*	*	*	*	*	*	*	*	*	*	*	*	*	*	*	*	*	*
!	!	!	!	!	!	!	!	!	!	!	!	!	!	!	!	!	!	!	!	!	!LO:LB:g=original	!	!	!
!	!	!	!	!	!	!	!	!	!	!	!	!	!	!	!	!	!LO:LB:g=original	!	!	!	!	!	!	!
=45	=45	=45	=45	=45	=45	=45	=45	=45	=45	=45	=45	=45	=45	=45	=45	=45	=45	=45	=45	=45	=45	=45	=45	=45
!	!	!	!	!	!	!	!	!	!	!	!	!	!LO:TX:a:t=12	!	!	!	!	!	!	!	!	!	!	!
!	!	!LO:DY:t=for.	!	!	!	!	!	!LO:DY:t=f.	!	!	!	!	!	!	!	!	!	!	!	!	!	!	!	!
*Xtremolo	*	*	*	*	*	*	*	*	*	*	*	*	*	*	*	*	*	*	*	*	*	*	*	*
8B-\L	5 3	f	8f\L	ff	16d/LL	f	8bb-`\L	f	2.r	.	2.r	.	2.r	.	2.r	.	4b-/	.	4bb-\	.	4dd\	.	4bb-\	.
.	.	.	.	.	16d/	.	.	.	.	.	.	.	.	.	.	.	.	.	.	.	.	.	.	.
8B-\	.	.	8f\	.	16d/	.	8bb-`\J	.	.	.	.	.	.	.	.	.	.	.	.	.	.	.	.	.
.	.	.	.	.	16d/JJ	.	.	.	.	.	.	.	.	.	.	.	.	.	.	.	.	.	.	.
8d\	6	.	8f\	.	16f/LL	.	(16bb-\LL	.	.	.	.	.	.	.	.	.	4b-/	.	4bb-\	.	4dd\	.	4bb-\	.
.	.	.	.	.	16f/	.	16aan\J)	.	.	.	.	.	.	.	.	.	.	.	.	.	.	.	.	.
8d\	.	.	8f\	.	16f/	f	8bb-`\J	.	.	.	.	.	.	.	.	.	.	.	.	.	.	.	.	.
.	.	.	.	.	16f/JJ	.	.	.	.	.	.	.	.	.	.	.	.	.	.	.	.	.	.	.
8B-\	.	.	8f\	.	16f/LL	.	8ddd\L	.	.	.	.	.	.	.	.	.	4b-/	.	4bb-\	.	4dd\	.	4bb-\	.
.	.	.	.	.	16f/	.	.	.	.	.	.	.	.	.	.	.	.	.	.	.	.	.	.	.
8B-\J	.	.	8f\J	.	16f/	.	8bb-\J	.	.	.	.	.	.	.	.	.	.	.	.	.	.	.	.	.
.	.	.	.	.	16f/JJ	.	.	.	.	.	.	.	.	.	.	.	.	.	.	.	.	.	.	.
!LO:LB:g=original	!	!	!	!	!	!	!	!	!	!	!	!	!	!	!	!	!	!	!	!	!	!	!	!
=46	=46	=46	=46	=46	=46	=46	=46	=46	=46	=46	=46	=46	=46	=46	=46	=46	=46	=46	=46	=46	=46	=46	=46	=46
*tremolo	*	*	*	*	*	*	*	*	*	*	*	*	*	*	*	*	*	*	*	*	*	*	*	*
8B-\L	.	.	8f\L	.	16f/LL	.	8ff`\L	.	2.r	.	2.r	.	2.r	.	2.r	.	4b-/	.	4ff\	.	4ff\	.	4bb-\	.
.	.	.	.	.	16f/	.	.	.	.	.	.	.	.	.	.	.	.	.	.	.	.	.	.	.
8B-\	.	.	8f\	.	16f/	.	8bb-`\J	.	.	.	.	.	.	.	.	.	.	.	.	.	.	.	.	.
.	.	.	.	.	16f/JJ	.	.	.	.	.	.	.	.	.	.	.	.	.	.	.	.	.	.	.
8B-\	.	.	8f\	.	16f/LL	.	8dd`\L	.	.	.	.	.	.	.	.	.	4b-/	.	4ff\	.	4dd\	.	4ff\	.
.	.	.	.	.	16f/	.	.	.	.	.	.	.	.	.	.	.	.	.	.	.	.	.	.	.
8B-\	.	.	8f\	.	16f/	.	8ff`\	.	.	.	.	.	.	.	.	.	.	.	.	.	.	.	.	.
.	.	.	.	.	16f/JJ	.	.	.	.	.	.	.	.	.	.	.	.	.	.	.	.	.	.	.
8B-\	.	.	8f\	.	16f/LL	.	8b-`\	.	.	.	.	.	.	.	.	.	4b-/	.	4ff\	.	4b-\	.	4dd\	.
.	.	.	.	.	16f/	.	.	.	.	.	.	.	.	.	.	.	.	.	.	.	.	.	.	.
8B-\J	.	.	8f\J	.	16f/	.	8dd`\J	.	.	.	.	.	.	.	.	.	.	.	.	.	.	.	.	.
.	.	.	.	.	16f/JJ	.	.	.	.	.	.	.	.	.	.	.	.	.	.	.	.	.	.	.
=47	=47	=47	=47	=47	=47	=47	=47	=47	=47	=47	=47	=47	=47	=47	=47	=47	=47	=47	=47	=47	=47	=47	=47	=47
*Xtremolo	*	*	*Xtremolo	*	*	*	*	*	*	*	*	*	*	*	*	*	*	*	*	*	*	*	*	*
!	!	!	!	!	!	!	!LO:TX:t=P:problem: mixed beam	!	!	!	!	!	!	!	!	!	!	!	!	!	!	!	!	!
8F\L	n	.	8f\L	.	16an/LL	.	8f\L	.	2.r	.	2.r	.	2.r	.	2.r	.	4ff\	.	4ff\	.	4cc\	.	4ff\	.
.	.	.	.	.	16a/	.	.	.	.	.	.	.	.	.	.	.	.	.	.	.	.	.	.	.
8F\	.	.	8f\J	.	16a/	.	8ff\J	.	.	.	.	.	.	.	.	.	.	.	.	.	.	.	.	.
.	.	.	.	.	16a/JJ	.	.	.	.	.	.	.	.	.	.	.	.	.	.	.	.	.	.	.
!	!	!	!	!	!	!	!LO:LB:g=original	!	!	!	!	!	!	!	!	!	!	!	!	!	!	!	!	!
.	.	.	.	.	.	.	8qgg/	.	.	.	.	.	.	.	.	.	.	.	.	.	.	.	.	.
*	*	*	*tremolo	*	*	*	*	*	*	*	*	*	*	*	*	*	*	*	*	*	*	*	*	*
8An\	6	.	8c\L	.	16cc/LL	.	(16ff\LL	.	.	.	.	.	.	.	.	.	4ff\	.	4ff\	.	4cc\	.	4ff\	.
.	.	.	.	.	16cc/	.	16een\J)	.	.	.	.	.	.	.	.	.	.	.	.	.	.	.	.	.
8A\	.	.	8c\	.	16cc/	.	8ff`\J	.	.	.	.	.	.	.	.	.	.	.	.	.	.	.	.	.
.	.	.	.	.	16cc/JJ	.	.	.	.	.	.	.	.	.	.	.	.	.	.	.	.	.	.	.
8c\	n	.	8c\	.	16g/LL	.	8een`\L	.	.	.	.	.	.	.	.	.	4r	.	4r	.	4cc\	.	4eeX\	.
.	.	.	.	.	16g/	.	.	.	.	.	.	.	.	.	.	.	.	.	.	.	.	.	.	.
8c\J	.	.	8c\J	.	16g/	.	8cc`\J	.	.	.	.	.	.	.	.	.	.	.	.	.	.	.	.	.
.	.	.	.	.	16g/JJ	.	.	.	.	.	.	.	.	.	.	.	.	.	.	.	.	.	.	.
!	!	!	!LO:LB:g=original	!	!LO:LB:g=original	!	!	!	!	!	!	!	!	!	!	!	!	!	!	!	!	!	!	!
!	!	!	!	!	!	!	!	!	!	!	!	!	!	!	!	!	!	!	!LO:LB:g=original	!	!	!	!	!
=48	=48	=48	=48	=48	=48	=48	=48	=48	=48	=48	=48	=48	=48	=48	=48	=48	=48	=48	=48	=48	=48	=48	=48	=48
!	!	!	!	!	!	!	!	!	!LO:TX:a:t=Solo	!	!	!	!	!	!	!	!	!	!	!	!	!	!	!
4F\	.	.	4c\	.	4a-/	.	4ff\	.	4r	.	2.r	.	2.r	.	2.r	.	4ff\	.	4ff\	.	4cc\	.	4ff\	.
4r	.	.	4r	.	4r	.	4r	.	4r	.	.	.	.	.	.	.	4r	.	4r	.	4r	.	4r	.
4r	.	.	4f\	.	4r	.	4r	.	8F\	Et	.	.	.	.	.	.	4r	.	4r	.	4r	.	4r	.
.	.	.	.	.	.	.	.	.	8F\	ex	.	.	.	.	.	.	.	.	.	.	.	.	.	.
!	!	!	!	!	!	!	!	!	!LO:LB:g=original	!	!	!	!	!	!	!	!	!	!	!	!	!	!	!
=49	=49	=49	=49	=49	=49	=49	=49	=49	=49	=49	=49	=49	=49	=49	=49	=49	=49	=49	=49	=49	=49	=49	=49	=49
!LO:TX:a:t=Solo	!	!	!	!	!	!	!LO:TX:a:t=1	!	!	!	!	!	!	!	!	!	!	!	!LO:TX:a:t=1	!	!LO:TX:a:t=1	!	!LO:TX:a:t=1	!
4B-`\	.	.	2b-\	p	2.r	.	2.r	.	2B-\	pa-	2.r	.	2.r	.	2.r	.	2.r	.	2.r	.	2.r	.	2.r	.
4BB-`/	.	.	.	.	.	.	.	.	.	.	.	.	.	.	.	.	.	.	.	.	.	.	.	.
!	!	!	!	!LO:DY:a	!	!	!	!	!	!	!	!	!	!	!	!	!	!	!	!	!	!	!	!
4F`\	.	.	4f\	f	.	.	.	.	4F\	-tre	.	.	.	.	.	.	.	.	.	.	.	.	.	.
=50	=50	=50	=50	=50	=50	=50	=50	=50	=50	=50	=50	=50	=50	=50	=50	=50	=50	=50	=50	=50	=50	=50	=50	=50
4D`\	.	.	4d/	.	4r	.	4r	.	4D/	na-	2.r	.	2.r	.	2.r	.	2.r	.	4r	.	4r	.	4r	.
4BB-`\	.	.	4B-/	.	4r	.	4r	.	4BB-/	-tum	.	.	.	.	.	.	.	.	4r	.	4r	.	4r	.
!	!	!	!	!	!	!	!	!	!	!	!	!	!	!	!	!	!	!	!	!	!	!	!LO:TX:a:t=Solo	!
4r	.	.	4r	.	8B-/L	p	8d`/L	p	4r	.	.	.	.	.	.	.	.	.	4ff\	p	8b-\L	p	8dd\L	p
.	.	.	.	.	8B-/J	.	8d`/J	.	.	.	.	.	.	.	.	.	.	.	.	.	8b-\J	.	8dd\J	.
=51	=51	=51	=51	=51	=51	=51	=51	=51	=51	=51	=51	=51	=51	=51	=51	=51	=51	=51	=51	=51	=51	=51	=51	=51
*	*	*	*	*	*	*	*tremolo	*	*	*	*	*	*	*	*	*	*	*	*	*	*	*	*	*
!	!	!	!LO:TX:a:t=1	!	!	!	!	!	!	!	!	!	!	!	!	!	!	!	!	!	!	!	!	!
2F\	5 n	.	2.r	.	8An/L	.	8c/L	.	2.r	.	2.r	.	2.r	.	2.r	.	2.r	.	2.ff\	.	2a\	.	2cc\	.
.	.	.	.	.	8A/	.	8c/	.	.	.	.	.	.	.	.	.	.	.	.	.	.	.	.	.
.	.	.	.	.	8A/	.	8c/	.	.	.	.	.	.	.	.	.	.	.	.	.	.	.	.	.
.	.	.	.	.	8A/	.	8c/J	.	.	.	.	.	.	.	.	.	.	.	.	.	.	.	.	.
*	*	*	*	*	*	*	*Xtremolo	*	*	*	*	*	*	*	*	*	*	*	*	*	*	*	*	*
4F\	6 4	.	.	.	8B-/	.	8d/L	.	.	.	.	.	.	.	.	.	.	.	.	.	4b-\	.	4dd\	.
.	.	.	.	.	8B-/J	.	8d/J	.	.	.	.	.	.	.	.	.	.	.	.	.	.	.	.	.
!	!	!	!	!	!	!	!	!	!	!	!	!	!	!	!	!	!	!	!	!	!LO:LB:g=original	!	!	!
=52	=52	=52	=52	=52	=52	=52	=52	=52	=52	=52	=52	=52	=52	=52	=52	=52	=52	=52	=52	=52	=52	=52	=52	=52
*	*	*	*Xtremolo	*	*	*	*	*	*	*	*	*	*	*	*	*	*	*	*	*	*	*	*	*
4F\	7 5	.	4r	.	8c/L	.	8e-/L	.	4r	.	2.r	.	2.r	.	2.r	.	2.r	.	2.ff\	.	4cc\	.	4ee-\	.
.	.	.	.	.	8c/	.	8e-/	.	.	.	.	.	.	.	.	.	.	.	.	.	.	.	.	.
4F\	6 4	.	4r	.	8B-/	.	8d/	.	4r	.	.	.	.	.	.	.	.	.	.	.	4b-\	.	4dd\	.
.	.	.	.	.	8B-/	.	8d/	.	.	.	.	.	.	.	.	.	.	.	.	.	.	.	.	.
4F\	5 n	.	(8f'\L	p	8An/	.	8c/	.	8F\	an-	.	.	.	.	.	.	.	.	.	.	4a-\	.	4cc\	.
.	.	.	8f'\J)	.	8A/J	.	8c/J	.	8F\	-te	.	.	.	.	.	.	.	.	.	.	.	.	.	.
!	!	!	!	!	!	!	!	!	!	!	!	!	!	!	!	!	!	!	!	!	!	!	!LO:LB:g=original	!
=53	=53	=53	=53	=53	=53	=53	=53	=53	=53	=53	=53	=53	=53	=53	=53	=53	=53	=53	=53	=53	=53	=53	=53	=53
!	!	!	!	!	!LO:TX:a:t=Verte Citto	!	!	!	!	!	!	!	!	!	!	!	!	!	!LO:TX:a:t=2	!	!LO:TX:a:t=1	!	!LO:TX:a:t=1	!
4B-`\	.	.	2b-\	.	2.r	.	2.r	.	4.B-\	O-	2.r	.	2.r	.	2.r	.	2.r	.	2.r	.	2.r	.	2.r	.
4BB-`/	.	.	.	.	.	.	.	.	.	.	.	.	.	.	.	.	.	.	.	.	.	.	.	.
.	.	.	.	.	.	.	.	.	8B-\	-mni-	.	.	.	.	.	.	.	.	.	.	.	.	.	.
4F`\	.	.	4f\	.	.	.	.	.	4F\	-a	.	.	.	.	.	.	.	.	.	.	.	.	.	.
!	!	!	!	!	!LO:LB:g=original	!	!	!	!	!	!	!	!	!	!	!	!	!	!	!	!	!	!	!
=54	=54	=54	=54	=54	=54	=54	=54	=54	=54	=54	=54	=54	=54	=54	=54	=54	=54	=54	=54	=54	=54	=54	=54	=54
4D`\	.	.	4d/	.	4r	.	4r	.	8D/	Sae-	2.r	.	2.r	.	2.r	.	2.r	.	2.r	.	4r	.	4r	.
.	.	.	.	.	.	.	.	.	8D/	-cu-	.	.	.	.	.	.	.	.	.	.	.	.	.	.
4BB-`\	.	.	4B-/	.	4r	.	4r	.	4BB-/	-la	.	.	.	.	.	.	.	.	.	.	4r	.	4r	.
4r	.	.	4r	.	8b-/L	.	(8dd\L	p	4r	.	.	.	.	.	.	.	.	.	.	.	8b-\L	.	8dd\L	.
.	.	.	.	.	8f/J	p	8b-\J)	.	.	.	.	.	.	.	.	.	.	.	.	.	8b-\J	.	8dd\J	.
=55	=55	=55	=55	=55	=55	=55	=55	=55	=55	=55	=55	=55	=55	=55	=55	=55	=55	=55	=55	=55	=55	=55	=55	=55
!	!	!	!LO:TX:a:t=2	!	!	!	!	!	!	!	!	!	!	!	!	!	!	!	!	!	!	!	!	!
2F\	5 n	.	2.r	.	8an/L	.	(8cc\L	.	2.r	.	2.r	.	2.r	.	2.r	.	2.r	.	2.ff\	p	2a\	.	2cc\	.
.	.	.	.	.	8f/	.	8an\)	.	.	.	.	.	.	.	.	.	.	.	.	.	.	.	.	.
.	.	.	.	.	8a/	.	(8cc\	.	.	.	.	.	.	.	.	.	.	.	.	.	.	.	.	.
.	.	.	.	.	8f/	.	8a\)	.	.	.	.	.	.	.	.	.	.	.	.	.	.	.	.	.
4F\	6 4	.	.	.	8b-/	.	(8dd\	.	.	.	.	.	.	.	.	.	.	.	.	.	4b-\	.	4dd\	.
.	.	.	.	.	8f/J	.	8b-\J)	.	.	.	.	.	.	.	.	.	.	.	.	.	.	.	.	.
=56	=56	=56	=56	=56	=56	=56	=56	=56	=56	=56	=56	=56	=56	=56	=56	=56	=56	=56	=56	=56	=56	=56	=56	=56
4F\	7 5	.	2.r	.	8cc/L	.	(8ee-\L	.	2.r	.	2.r	.	2.r	.	2.r	.	2.r	.	2.ff\	.	4cc\	.	4ee-\	.
.	.	.	.	.	8an/	.	8cc\)	.	.	.	.	.	.	.	.	.	.	.	.	.	.	.	.	.
4F\	6 4	.	.	.	8b-/	.	(8dd\	.	.	.	.	.	.	.	.	.	.	.	.	.	4b-\	.	4dd\	.
.	.	.	.	.	8f/	.	8b-\)	.	.	.	.	.	.	.	.	.	.	.	.	.	.	.	.	.
4F\	5 3	.	.	.	8an/	.	(8cc\	.	.	.	.	.	.	.	.	.	.	.	.	.	4a-\	.	4cc\	.
.	.	.	.	.	8f/J	.	8a-\J)	.	.	.	.	.	.	.	.	.	.	.	.	.	.	.	.	.
!LO:LB:g=original	!	!	!	!	!	!	!LO:LB:g=original	!	!	!	!LO:LB:g=original	!	!	!	!LO:LB:g=original	!	!	!	!	!	!	!	!	!
=57	=57	=57	=57	=57	=57	=57	=57	=57	=57	=57	=57	=57	=57	=57	=57	=57	=57	=57	=57	=57	=57	=57	=57	=57
!LO:TX:a:t=Tutti	!	!	!	!	!	!LO:DY:a	!	!	!	!	!	!	!	!	!	!	!	!	!	!	!	!	!	!
!	!	!	!	!	!	!	!	!LO:DY:t=f.	!	!	!	!	!	!	!	!	!	!	!	!	!	!	!	!
*tremolo	*	*	*tremolo	*	*tremolo	*	*	*	*	*	*	*	*	*	*	*	*	*	*	*	*	*	*	*
!	!	!LO:DY:t=f.	!	!LO:DY:t=ffor	!	!	!	!	!	!	!	!	!	!	!	!	!	!	!	!	!	!	!	!
8B-\L	.	f	8f\L	ff	16d/LL	f	2d/ 2b-	f	4B-\	De-	4d\	De-	4f\	De-	4b-\	De-	2.b-/	p	2.ff\	.	2.b-\	.	2.dd\	.
.	.	.	.	.	16d/	.	.	.	.	.	.	.	.	.	.	.	.	.	.	.	.	.	.	.
8B-\	.	.	8f\	.	16d/	.	.	.	.	.	.	.	.	.	.	.	.	.	.	.	.	.	.	.
.	.	.	.	.	16d/	.	.	.	.	.	.	.	.	.	.	.	.	.	.	.	.	.	.	.
8B-\	.	.	8f\	.	16d/	.	.	.	4B-\	-um	4d\	-um	4f\	-um	4b-\	-um	.	.	.	.	.	.	.	.
.	.	.	.	.	16d/	.	.	.	.	.	.	.	.	.	.	.	.	.	.	.	.	.	.	.
8B-\	.	.	8f\	.	16d/	.	.	.	.	.	.	.	.	.	.	.	.	.	.	.	.	.	.	.
.	.	.	.	.	16d/	.	.	.	.	.	.	.	.	.	.	.	.	.	.	.	.	.	.	.
8B-\	.	.	8f\	.	16d/	.	(16b-/LL	.	4B-\	de	4d\	de	4f\	de	4b-\	de	.	.	.	.	.	.	.	.
.	.	.	.	.	16d/	.	16an/	.	.	.	.	.	.	.	.	.	.	.	.	.	.	.	.	.
8B-\J	.	.	8f\J	.	16d/	.	16b-/	.	.	.	.	.	.	.	.	.	.	.	.	.	.	.	.	.
.	.	.	.	.	16d/JJ	.	16cc/JJ)	.	.	.	.	.	.	.	.	.	.	.	.	.	.	.	.	.
!	!	!	!LO:LB:g=original	!	!	!	!	!	!	!	!	!	!LO:LB:g=original	!	!	!	!	!	!	!	!	!	!	!
=58	=58	=58	=58	=58	=58	=58	=58	=58	=58	=58	=58	=58	=58	=58	=58	=58	=58	=58	=58	=58	=58	=58	=58	=58
8B-\L	.	.	8f\L	.	16d/LL	.	4dd\	.	4B-\	De-	4d\	de-	4f\	De-	4dd\	De-	2.b-/	.	2.ff\	.	2.b-\	.	2.dd\	.
.	.	.	.	.	16d/	.	.	.	.	.	.	.	.	.	.	.	.	.	.	.	.	.	.	.
8B-\	.	.	8f\	.	16d/	.	.	.	.	.	.	.	.	.	.	.	.	.	.	.	.	.	.	.
.	.	.	.	.	16d/	.	.	.	.	.	.	.	.	.	.	.	.	.	.	.	.	.	.	.
8B-\	.	.	8f\	.	16d/	.	4b-\	.	4B-\	-o,	4d\	-o,	4f\	-o	4dd\	-o	.	.	.	.	.	.	.	.
.	.	.	.	.	16d/	.	.	.	.	.	.	.	.	.	.	.	.	.	.	.	.	.	.	.
8B-\	.	.	8f\	.	16d/	.	.	.	.	.	.	.	.	.	.	.	.	.	.	.	.	.	.	.
.	.	.	.	.	16d/	.	.	.	.	.	.	.	.	.	.	.	.	.	.	.	.	.	.	.
8B-\	.	.	8f\	.	16d/	.	(16dd\LL	.	4r	.	4r	.	4r	.	4r	.	.	.	.	.	.	.	.	.
.	.	.	.	.	16d/	.	16cc\	.	.	.	.	.	.	.	.	.	.	.	.	.	.	.	.	.
8B-\J	.	.	8f\J	.	16d/	.	16dd\	.	.	.	.	.	.	.	.	.	.	.	.	.	.	.	.	.
.	.	.	.	.	16d/JJ	.	16ee-\JJ)	.	.	.	.	.	.	.	.	.	.	.	.	.	.	.	.	.
!	!	!	!	!	!	!	!	!	!LO:LB:g=original	!	!	!	!	!	!	!	!	!	!	!	!	!	!	!
=59	=59	=59	=59	=59	=59	=59	=59	=59	=59	=59	=59	=59	=59	=59	=59	=59	=59	=59	=59	=59	=59	=59	=59	=59
8B-\L	.	.	8f\L	.	16d/LL	.	4ff\	.	4B-\	lu-	4d\	Lu-	4f\	lu-	4dd\	lu-	2.b-/	.	2.ff\	.	4dd\	.	4ff\	.
.	.	.	.	.	16d/	.	.	.	.	.	.	.	.	.	.	.	.	.	.	.	.	.	.	.
8B-\	.	.	8f\	.	16d/	.	.	.	.	.	.	.	.	.	.	.	.	.	.	.	.	.	.	.
.	.	.	.	.	16d/	.	.	.	.	.	.	.	.	.	.	.	.	.	.	.	.	.	.	.
8B-\	.	.	8f\	.	16d/	.	4dd\	.	4B-\	-men	4d\	-men	4f\	-men	4dd\	-men	.	.	.	.	4b-\	.	4dd\	.
.	.	.	.	.	16d/	.	.	.	.	.	.	.	.	.	.	.	.	.	.	.	.	.	.	.
8B-\	.	.	8f\	.	16d/	.	.	.	.	.	.	.	.	.	.	.	.	.	.	.	.	.	.	.
.	.	.	.	.	16d/	.	.	.	.	.	.	.	.	.	.	.	.	.	.	.	.	.	.	.
8B-\	.	.	8f\	.	16d/	.	(16ff\LL	.	4B-\	de	4d\	de	4f\	de	4ff\	de	.	.	.	.	4dd\	.	4ff\	.
.	.	.	.	.	16d/	.	16een\	.	.	.	.	.	.	.	.	.	.	.	.	.	.	.	.	.
8B-\J	.	.	8f\J	.	16d/	.	16ff\	.	.	.	.	.	.	.	.	.	.	.	.	.	.	.	.	.
.	.	.	.	.	16d/JJ	.	16gg\JJ)	.	.	.	.	.	.	.	.	.	.	.	.	.	.	.	.	.
!	!	!	!	!	!	!	!	!	!	!	!	!	!	!	!	!	!	!	!	!	!LO:LB:g=original	!	!	!
=60	=60	=60	=60	=60	=60	=60	=60	=60	=60	=60	=60	=60	=60	=60	=60	=60	=60	=60	=60	=60	=60	=60	=60	=60
8B-\L	-7 5	.	8f\L	.	16d/LL	.	4aa-X\	.	8B-\	lu-	8d\	lu-	8f\	lu-	8aa-X\	lu-	2b-/	.	2ff\	.	4ff\	.	4aa-X\	.
.	.	.	.	.	16d/	.	.	.	.	.	.	.	.	.	.	.	.	.	.	.	.	.	.	.
8B-\	.	.	8f\	.	16d/	.	.	.	8B-\	-mi-	8d\	-mi-	8f\	-mi-	8aa-\	-mi-	.	.	.	.	.	.	.	.
.	.	.	.	.	16d/	.	.	.	.	.	.	.	.	.	.	.	.	.	.	.	.	.	.	.
!	!	!	!	!	!	!	!	!	!	!	!	!	!	!	!	!	!	!	!	!	!	!LO:DY:a	!	!
8B-\	.	.	8f\	.	16d/	.	4ff\	.	4B-\	-ne	4d\	-ne,	4f\	-ne	4ff\	-ne	.	.	.	.	2dd\	f	2ff\	.
.	.	.	.	.	16d/	.	.	.	.	.	.	.	.	.	.	.	.	.	.	.	.	.	.	.
8B-\J	.	.	8f\	.	16d/	.	.	.	.	.	.	.	.	.	.	.	.	.	.	.	.	.	.	.
.	.	.	.	.	16d/	.	.	.	.	.	.	.	.	.	.	.	.	.	.	.	.	.	.	.
*Xtremolo	*	*	*	*	*	*	*	*	*	*	*	*	*	*	*	*	*	*	*	*	*	*	*	*
8Bn\L	.	.	8f\	.	16d/	.	4r	.	4r	.	4r	.	4r	.	4r	.	4r	.	4r	.	.	.	.	.
.	.	.	.	.	16d/	.	.	.	.	.	.	.	.	.	.	.	.	.	.	.	.	.	.	.
8B\J	.	.	8f\J	.	16d/	.	.	.	.	.	.	.	.	.	.	.	.	.	.	.	.	.	.	.
.	.	.	.	.	16d/JJ	.	.	.	.	.	.	.	.	.	.	.	.	.	.	.	.	.	.	.
!	!	!	!	!	!	!	!	!	!	!	!	!	!	!	!	!	!	!	!LO:LB:g=original	!	!	!	!	!
!	!	!	!	!	!	!	!	!	!	!	!	!	!	!	!	!	!LO:LB:g=original	!	!	!	!	!	!	!
=61	=61	=61	=61	=61	=61	=61	=61	=61	=61	=61	=61	=61	=61	=61	=61	=61	=61	=61	=61	=61	=61	=61	=61	=61
8c\L	5_ 3_	.	8g\L	.	16e-/LL	.	8cc\	.	2c\	De-	2e-\	De-	2g\	De-	2cc\	De-	2.ee-\	.	2.gg\	.	2.cc\	.	2.ee-\	.
.	.	.	.	.	16e-/	.	.	.	.	.	.	.	.	.	.	.	.	.	.	.	.	.	.	.
8G\	.	.	8g\	.	16e-/	.	4gg\	.	.	.	.	.	.	.	.	.	.	.	.	.	.	.	.	.
.	.	.	.	.	16e-/	.	.	.	.	.	.	.	.	.	.	.	.	.	.	.	.	.	.	.
8c\	.	.	8g\	.	16e-/	.	.	.	.	.	.	.	.	.	.	.	.	.	.	.	.	.	.	.
.	.	.	.	.	16e-/	.	.	.	.	.	.	.	.	.	.	.	.	.	.	.	.	.	.	.
8G\	.	.	8g\	.	16e-/	.	4ee-\	.	.	.	.	.	.	.	.	.	.	.	.	.	.	.	.	.
.	.	.	.	.	16e-/	.	.	.	.	.	.	.	.	.	.	.	.	.	.	.	.	.	.	.
8c\	.	.	8g\	.	16e-/	.	.	.	4c\	-um	4e-\	-um	4g\	-um	4cc\	-um	.	.	.	.	.	.	.	.
.	.	.	.	.	16e-/	.	.	.	.	.	.	.	.	.	.	.	.	.	.	.	.	.	.	.
8G\J	.	.	8g\J	.	16e-/	.	8cc\	.	.	.	.	.	.	.	.	.	.	.	.	.	.	.	.	.
.	.	.	.	.	16e-/JJ	.	.	.	.	.	.	.	.	.	.	.	.	.	.	.	.	.	.	.
=62	=62	=62	=62	=62	=62	=62	=62	=62	=62	=62	=62	=62	=62	=62	=62	=62	=62	=62	=62	=62	=62	=62	=62	=62
*tremolo	*	*	*	*	*	*	*	*	*	*	*	*	*	*	*	*	*	*	*	*	*	*	*	*
8d\L	6|	.	8d\L	.	8d/	.	8cc\L	.	4G\	ve-	4d\	ve-	4g\	ve-	8cc\L	ve-	4r	.	4r	.	4r	.	4r	.
8G\	.	.	8d\	.	4f/	.	8bn\J	.	.	.	.	.	.	.	8bn\J	.	.	.	.	.	.	.	.	.
8d\	.	.	8d\	.	.	.	2b\	.	4G\	-rum	4d\	-rum	4g\	-rum	4b\	-rum	4g/	.	4gg\	.	4bX\	.	4dd\	.
8G\	.	.	8d\	.	8d/	.	.	.	.	.	.	.	.	.	.	.	.	.	.	.	.	.	.	.
8d\	.	.	8d\	.	8f/L	.	.	.	4G\	de	4d\	de	4g\	de	4b\	de	4g/	.	4gg\	.	4b\	.	4dd\	.
8G\J	.	.	8d\J	.	8d/J	.	.	.	.	.	.	.	.	.	.	.	.	.	.	.	.	.	.	.
!	!	!	!	!	!LO:LB:g=original	!	!	!	!	!	!	!	!	!	!	!	!	!	!	!	!	!	!	!
=63	=63	=63	=63	=63	=63	=63	=63	=63	=63	=63	=63	=63	=63	=63	=63	=63	=63	=63	=63	=63	=63	=63	=63	=63
8c\L	5_ 3_	.	8g\L	.	8e-/L	.	8cc\	.	2c\	De-	2e-\	De-	2g\	De-	2cc\	De-	2ee-\	.	2.gg\	.	2.cc\	.	2.ee-\	.
8G\	.	.	8g\	.	8e-/	.	4gg\	.	.	.	.	.	.	.	.	.	.	.	.	.	.	.	.	.
8c\	.	.	8g\	.	8e-/	.	.	.	.	.	.	.	.	.	.	.	.	.	.	.	.	.	.	.
8G\	.	.	8g\	.	8e-/	.	4ee-\	.	.	.	.	.	.	.	.	.	.	.	.	.	.	.	.	.
!	!	!	!	!	!	!	!	!	!	!	!	!	!	!	!LO:LB:g=original	!	!	!	!	!	!	!	!	!
8c\	.	.	8g\	.	8e-/	.	.	.	4c\	-o	4e-\	-o	4g\	-o	4cc\	-o	4ee-\	.	.	.	.	.	.	.
8G\J	.	.	8g\J	.	8e-/J	.	8cc\	.	.	.	.	.	.	.	.	.	.	.	.	.	.	.	.	.
=64	=64	=64	=64	=64	=64	=64	=64	=64	=64	=64	=64	=64	=64	=64	=64	=64	=64	=64	=64	=64	=64	=64	=64	=64
8d\L	6|	.	8d\L	.	8d/	.	8cc\L	.	4G\	ve-	4d\	ve-	4g\	ve-	8cc\L	ve-	4r	.	4r	.	4r	.	4r	.
8G\	.	.	8d\	.	4f/	.	8bn\J	.	.	.	.	.	.	.	8bn\J	.	.	.	.	.	.	.	.	.
8d\	.	.	8d\	.	.	.	4.b\	.	4G\	-ro,	4d\	-ro	4g\	-ro	4b\	-ro	4g/	.	4gg\	.	4bX\	.	4dd\	.
8G\	.	.	8d\	.	8d/	.	.	.	.	.	.	.	.	.	.	.	.	.	.	.	.	.	.	.
8d\	.	.	8d\	.	8f/L	.	.	.	4r	.	4r	.	4r	.	4r	.	4g/	.	4gg\	.	4b\	.	4dd\	.
8G\J	.	.	8d\J	.	8d/J	.	8gg\	.	.	.	.	.	.	.	.	.	.	.	.	.	.	.	.	.
!	!	!	!	!	!	!	!	!	!	!	!LO:LB:g=original	!	!LO:LB:g=original	!	!	!	!	!	!	!	!	!	!LO:LB:g=original	!
=65	=65	=65	=65	=65	=65	=65	=65	=65	=65	=65	=65	=65	=65	=65	=65	=65	=65	=65	=65	=65	=65	=65	=65	=65
!LO:TX:t=P:problem:mixed beam	!	!	!	!	!	!	!	!	!	!	!LO:TX:a:t=7	!	!	!	!	!	!	!	!	!	!	!	!	!
*Xtremolo	*	*	*	*	*	*	*	*	*	*	*	*	*	*	*	*	*	*	*	*	*	*	*	*
8F/L	6	.	4f\	.	8f/L	.	8aa-\L	.	2.r	.	2.r	.	2.r	.	2.r	.	4r	.	4r	.	4ff\	.	4aa-\	.
8F/	.	.	.	.	8a-X/	.	(16gg\L	.	.	.	.	.	.	.	.	.	.	.	.	.	.	.	.	.
.	.	.	.	.	.	.	16ff\JJ)	.	.	.	.	.	.	.	.	.	.	.	.	.	.	.	.	.
8G/	6 4	.	4g\	.	8cc/	.	8ee-`\L	.	.	.	.	.	.	.	.	.	4g/	.	4gg\	.	4ee-\	.	4gg\	.
8G/	.	.	.	.	8ee-/	.	8ccc`\	.	.	.	.	.	.	.	.	.	.	.	.	.	.	.	.	.
8GG/	5n	.	4G/	.	8bn/	.	8dd`\	.	.	.	.	.	.	.	.	.	4g/	.	4gg\	.	4dd\	.	4ff\	.
8GG/J	.	.	.	.	8dd/J	.	8bbn`\J	.	.	.	.	.	.	.	.	.	.	.	.	.	.	.	.	.
!	!	!	!	!	!	!	!LO:LB:g=original	!	!	!	!	!	!	!	!	!	!	!	!	!	!	!	!	!
=66	=66	=66	=66	=66	=66	=66	=66	=66	=66	=66	=66	=66	=66	=66	=66	=66	=66	=66	=66	=66	=66	=66	=66	=66
!LO:TX:a:t=Solo	!	!	!	!	!	!	!	!	!	!	!	!	!	!	!	!	!	!	!	!	!	!	!	!
4C/	.	.	4c/	.	4cc\	.	4ccc\	.	8C/L	Ge-	2.r	.	2.r	.	2.r	.	2.r	.	2.r	.	4cc\	.	4ee-\	.
.	.	.	.	.	.	.	.	.	8C/J	-ni-	.	.	.	.	.	.	.	.	.	.	.	.	.	.
4Bn\	6	.	4.g\	.	4r	.	4r	.	4.G\	-tum	.	.	.	.	.	.	.	.	.	.	4r	.	4r	.
4G\	7	.	.	.	4r	.	4r	.	.	.	.	.	.	.	.	.	.	.	.	.	4r	.	4r	.
.	.	.	8f\	.	.	.	.	.	8F\	non	.	.	.	.	.	.	.	.	.	.	.	.	.	.
!	!	!	!LO:LB:g=original	!	!	!	!	!	!LO:LB:g=original	!	!	!	!	!	!	!	!	!	!	!	!	!	!	!
=67	=67	=67	=67	=67	=67	=67	=67	=67	=67	=67	=67	=67	=67	=67	=67	=67	=67	=67	=67	=67	=67	=67	=67	=67
*	*	*	*Xtremolo	*	*	*	*	*	*	*	*	*	*	*	*	*	*	*	*	*	*	*	*	*
4c\	-	.	8e-\L	.	4r	.	4r	.	8E-/L	fac-	2.r	.	4r	.	4r	.	2.r	.	2.r	.	4r	.	4r	.
.	.	.	8e-\J	.	.	.	.	.	8D/J	.	.	.	.	.	.	.	.	.	.	.	.	.	.	.
4C/	.	.	4c/	.	4r	.	4r	.	4C/	-tum	.	.	4r	.	4r	.	.	.	.	.	4r	.	4r	.
4r	.	.	4G/	.	4e-/	p	4cc\	.	4r	.	.	.	8e-\	ge-	8cc\	Ge-	.	.	.	.	4cc\	.	4ee-\	.
.	.	.	.	.	.	.	.	.	.	.	.	.	8e-\	-ni-	8cc\	-ni-	.	.	.	.	.	.	.	.
!LO:LB:g=original	!	!	!	!	!	!	!	!	!	!	!	!	!	!	!	!	!	!	!	!	!LO:LB:g=original	!	!	!
=68	=68	=68	=68	=68	=68	=68	=68	=68	=68	=68	=68	=68	=68	=68	=68	=68	=68	=68	=68	=68	=68	=68	=68	=68
*	*	*	*tremolo	*	*	*	*	*	*	*	*	*	*	*	*	*	*	*	*	*	*	*	*	*
4G\	n	.	8g\L	p	4d/	.	4bn\	.	2.r	.	2.r	.	8d\	-tum	8bn\	-tum	2.g/	pp	2.gg\	pp	2bX\	.	2dd\	.
.	.	.	8g\	.	.	.	.	.	.	.	.	.	8d\	non	8b\	non	.	.	.	.	.	.	.	.
4GG/	.	.	8g\	.	4r	.	4r	.	.	.	.	.	4d\	fac-	4b\	fac-	.	.	.	.	.	.	.	.
.	.	.	8g\	.	.	.	.	.	.	.	.	.	.	.	.	.	.	.	.	.	.	.	.	.
4r	.	.	8g\	.	4e-/	.	4cc\	.	.	.	.	.	4e-\	-tum	4cc\	-tum	.	.	.	.	4cc\	.	4ee-\	.
.	.	.	8g\J	.	.	.	.	.	.	.	.	.	.	.	.	.	.	.	.	.	.	.	.	.
=69	=69	=69	=69	=69	=69	=69	=69	=69	=69	=69	=69	=69	=69	=69	=69	=69	=69	=69	=69	=69	=69	=69	=69	=69
4G\	.	.	8g\L	.	4d/	.	4bn\	.	2.r	.	2.r	.	4d\	fac-	4bn\	fac-	2.g/	.	2.gg\	.	2b-\	.	2dd\	.
.	.	.	8g\	.	.	.	.	.	.	.	.	.	.	.	.	.	.	.	.	.	.	.	.	.
4GG/	.	.	8g\	.	4r	.	4r	.	.	.	.	.	4d\	-tum	4b\	-tum	.	.	.	.	.	.	.	.
.	.	.	8g\	.	.	.	.	.	.	.	.	.	.	.	.	.	.	.	.	.	.	.	.	.
4r	.	.	8g\	.	4e-/	.	4cc\	.	.	.	.	.	8e-\	con-	8cc\	con	.	.	.	.	4cc\	.	4ee-\	.
.	.	.	8g\J	.	.	.	.	.	.	.	.	.	8e-\	-sub-	8cc\	sub-	.	.	.	.	.	.	.	.
=70	=70	=70	=70	=70	=70	=70	=70	=70	=70	=70	=70	=70	=70	=70	=70	=70	=70	=70	=70	=70	=70	=70	=70	=70
4G\	.	.	8g\L	.	4d/	.	4bn\	.	2.r	.	2.r	.	8d\	-stan-	8bn\	-stan-	2.g/	.	2.gg\	.	2b-\	.	2dd\	.
.	.	.	8g\	.	.	.	.	.	.	.	.	.	8d\	-ti-	8b\	-ti-	.	.	.	.	.	.	.	.
!	!	!	!	!	!	!	!	!	!	!	!	!	!	!	!LO:LB:g=original	!	!	!	!	!	!	!	!	!
4GG/	.	.	8g\	.	4r	.	4r	.	.	.	.	.	4d\	-a-	4bn\	-a-	.	.	.	.	.	.	.	.
.	.	.	8g\	.	.	.	.	.	.	.	.	.	.	.	.	.	.	.	.	.	.	.	.	.
4r	.	.	8g\	.	4e-/	.	4cc\	.	.	.	.	.	4e-\	-lem	4cc\	-lem	.	.	.	.	4cc\	.	4ee-\	.
.	.	.	8g\J	.	.	.	.	.	.	.	.	.	.	.	.	.	.	.	.	.	.	.	.	.
!	!	!	!	!	!	!	!	!	!	!	!	!	!	!	!	!	!	!	!	!	!	!	!	!
=71	=71	=71	=71	=71	=71	=71	=71	=71	=71	=71	=71	=71	=71	=71	=71	=71	=71	=71	=71	=71	=71	=71	=71	=71
4G\	.	.	8g\L	.	4d/	.	4bn\	.	2.r	.	2.r	.	4d\	Pa-	4bn\	Pa-	2.g/	.	2.gg\	.	2bX\	.	2dd\	.
.	.	.	8g\	.	.	.	.	.	.	.	.	.	.	.	.	.	.	.	.	.	.	.	.	.
4GG/	.	.	8g\	.	4r	.	4r	.	.	.	.	.	4d\	-tri	4b\	-tri	.	.	.	.	.	.	.	.
.	.	.	8g\	.	.	.	.	.	.	.	.	.	.	.	.	.	.	.	.	.	.	.	.	.
4G\	.	.	8g\	.	4d/	.	4b\	.	.	.	.	.	4r	.	4r	.	.	.	.	.	4r	.	4r	.
.	.	.	8g\J	.	.	.	.	.	.	.	.	.	.	.	.	.	.	.	.	.	.	.	.	.
!	!	!	!	!	!	!	!	!	!	!	!	!	!LO:LB:g=original	!	!	!	!	!	!	!	!	!	!	!
!	!	!	!	!	!	!	!	!	!	!	!	!	!	!	!	!	!LO:LB:g=original	!	!	!	!	!	!	!
=72	=72	=72	=72	=72	=72	=72	=72	=72	=72	=72	=72	=72	=72	=72	=72	=72	=72	=72	=72	=72	=72	=72	=72	=72
!LO:TX:a:t=Tutti	!	!	!	!	!	!	!	!	!	!	!	!	!	!	!	!	!	!	!LO:TX:a:t=1	!	!	!	!	!
!	!	!LO:DY:t=f.	!	!	!	!	!	!	!	!	!LO:TX:a:t=c	!	!	!	!	!	!	!	!	!	!	!	!	!
8c\L	5 n	f	8c\L	f	16g/LL	.	4cc\	.	4c\	per	4c\	Pa-	4g\	per-	4cc\	per-	2.r	.	2.r	.	2.cc\	.	2.eeX\	f
.	.	.	.	.	16g/	.	.	.	.	.	.	.	.	.	.	.	.	.	.	.	.	.	.	.
8C\	.	.	8c\	.	16g/	.	.	.	.	.	.	.	.	.	.	.	.	.	.	.	.	.	.	.
.	.	.	.	.	16g/	.	.	.	.	.	.	.	.	.	.	.	.	.	.	.	.	.	.	.
!	!	!	!	!	!	!	!LO:TX:b:t=Volti Subito	!	!	!	!	!	!	!	!	!	!	!	!	!	!	!	!	!
8En\	.	.	8c\	.	16g/	.	4r	.	4c\	quem	4c\	-tri	4g\	-quem	4een\	-quem	.	.	.	.	.	.	.	.
.	.	.	.	.	16g/	.	.	.	.	.	.	.	.	.	.	.	.	.	.	.	.	.	.	.
8G\	.	.	8c\	.	16g/	.	.	.	.	.	.	.	.	.	.	.	.	.	.	.	.	.	.	.
.	.	.	.	.	16g/	.	.	.	.	.	.	.	.	.	.	.	.	.	.	.	.	.	.	.
!	!	!	!	!	!	!	!LO:LB:g=original	!	!	!	!	!	!	!	!	!	!	!	!	!	!	!	!	!
*	*	*	*	*	*	*	*	*	*	*ij	*	*	*	*ij	*	*ij	*	*	*	*	*	*	*	*
!	!	!	!	!	!	!	!	!LO:DY:t=f.	!	!	!	!	!	!	!	!	!	!	!	!	!	!	!	!
8E\	.	.	8c\	.	16g/	.	4een\	f	8c\	per-	8c\	per	8g\	per-	8ee\	per-	.	.	.	.	.	.	.	.
.	.	.	.	.	16g/	.	.	.	.	.	.	.	.	.	.	.	.	.	.	.	.	.	.	.
8C\J	.	.	8c\J	.	16g/	.	.	.	8c\	-quem	8c\	quem	8g\	-quem	8ee\	-quem	.	.	.	.	.	.	.	.
.	.	.	.	.	16g/JJ	.	.	.	.	.	.	.	.	.	.	.	.	.	.	.	.	.	.	.
*	*	*	*	*	*	*	*	*	*	*Xij	*	*	*	*Xij	*	*Xij	*	*	*	*	*	*	*	*
!	!	!	!	!	!LO:LB:g=original	!	!	!	!	!	!	!	!	!	!	!	!	!	!	!	!	!	!	!
!	!	!	!	!	!	!	!	!	!	!	!	!	!	!	!	!	!	!	!LO:LB:g=original	!	!	!	!	!
=73	=73	=73	=73	=73	=73	=73	=73	=73	=73	=73	=73	=73	=73	=73	=73	=73	=73	=73	=73	=73	=73	=73	=73	=73
8r	.	.	8c\L	.	16a-/LL	.	8cc\ 8ff	.	4.A-\	O-	4.c\	O-	4.a-\	O-	4.ff\	o-	2.ff\	.	2.ff\	.	2.cc\	.	2.ff\	.
.	.	.	.	.	16a-/	.	.	.	.	.	.	.	.	.	.	.	.	.	.	.	.	.	.	.
8F\L	5_ 3_	.	8c\	.	16a-/	.	4cc\ 4ff	.	.	.	.	.	.	.	.	.	.	.	.	.	.	.	.	.
.	.	.	.	.	16a-/	.	.	.	.	.	.	.	.	.	.	.	.	.	.	.	.	.	.	.
8A-\	.	.	8c\	.	16a-/	.	.	.	.	.	.	.	.	.	.	.	.	.	.	.	.	.	.	.
.	.	.	.	.	16a-/	.	.	.	.	.	.	.	.	.	.	.	.	.	.	.	.	.	.	.
8c\	.	.	8c\	.	16a-/	.	4cc\ 4ff	.	8A-\	-mni-	8c\	-mni-	8a-\	-mni-	8ff\	-mni-	.	.	.	.	.	.	.	.
.	.	.	.	.	16a-/	.	.	.	.	.	.	.	.	.	.	.	.	.	.	.	.	.	.	.
8A-\	.	.	8c\	.	16a-/	.	.	.	4A-\	-a	4c\	-a	4a-\	-a	4ff\	-a	.	.	.	.	.	.	.	.
.	.	.	.	.	16a-/	.	.	.	.	.	.	.	.	.	.	.	.	.	.	.	.	.	.	.
8F\J	.	.	8c\J	.	16a-/	.	8cc\ 8ff	.	.	.	.	.	.	.	.	.	.	.	.	.	.	.	.	.
.	.	.	.	.	16a-/JJ	.	.	.	.	.	.	.	.	.	.	.	.	.	.	.	.	.	.	.
=74	=74	=74	=74	=74	=74	=74	=74	=74	=74	=74	=74	=74	=74	=74	=74	=74	=74	=74	=74	=74	=74	=74	=74	=74
!	!	!	!	!	!	!	!	!	!	!	!	!	!	!	!	!	!	!	!LO:TX:a:t=1	!	!	!	!	!
8r	.	.	8d\L	.	16an/LL	.	8cc\ 8ff#X	.	8F#X\	per	8c\	fac-	8an\	per	8ff#X\	per	2.r	.	2.r	.	2.cc\	.	2.ff#X\	.
.	.	.	.	.	16an/	.	.	.	.	.	.	.	.	.	.	.	.	.	.	.	.	.	.	.
8F#X\L	6 5 3	.	8d\	.	16an/	.	4cc\ 4ff#	.	8F#\	quem	8c\	-ta	8a\	quem	8ff#\	quem	.	.	.	.	.	.	.	.
.	.	.	.	.	16an/	.	.	.	.	.	.	.	.	.	.	.	.	.	.	.	.	.	.	.
8An\	.	.	8d\	.	16an/	.	.	.	4F#\	O-	4c\	s(un)t	4a\	O-	4ff#\	O-	.	.	.	.	.	.	.	.
.	.	.	.	.	16an/	.	.	.	.	.	.	.	.	.	.	.	.	.	.	.	.	.	.	.
8c\	.	.	8d\	.	16an/	.	4cc\ 4ff#	.	.	.	.	.	.	.	.	.	.	.	.	.	.	.	.	.
.	.	.	.	.	16an/	.	.	.	.	.	.	.	.	.	.	.	.	.	.	.	.	.	.	.
8A\	.	.	8d\	.	16an/	.	.	.	8F#\	-mni-	8c\	per-	8a\	-mni-	8ff#\	-mni-	.	.	.	.	.	.	.	.
.	.	.	.	.	16an/	.	.	.	.	.	.	.	.	.	.	.	.	.	.	.	.	.	.	.
8F#\J	.	.	8d\J	.	16an/	.	8cc\ 8ff#	.	8F#\	-a	8c\	-quem	8a\	-a	8ff#\	-a	.	.	.	.	.	.	.	.
.	.	.	.	.	16an/JJ	.	.	.	.	.	.	.	.	.	.	.	.	.	.	.	.	.	.	.
=75	=75	=75	=75	=75	=75	=75	=75	=75	=75	=75	=75	=75	=75	=75	=75	=75	=75	=75	=75	=75	=75	=75	=75	=75
*	*	*	*	*	*	*	*	*	*	*	*	*	*	*	*	*	*tremolo	*	*	*	*	*	*	*
8r	.	.	8d\L	.	16d/LL	.	8bn\ 8gg	.	4.G\	fac-	4.d\	O-	4.bn\	fac-	4.gg\	fac-	8g/L	.	2.gg\	.	2.dd\	.	2.gg\	.
.	.	.	.	.	16d/	.	.	.	.	.	.	.	.	.	.	.	.	.	.	.	.	.	.	.
8G\L	5 n	.	8d\	.	16d/	.	4b\ 4gg	.	.	.	.	.	.	.	.	.	8g/	.	.	.	.	.	.	.
.	.	.	.	.	16d/	.	.	.	.	.	.	.	.	.	.	.	.	.	.	.	.	.	.	.
8Bn\	.	.	8d\	.	16d/	.	.	.	.	.	.	.	.	.	.	.	8g/	.	.	.	.	.	.	.
.	.	.	.	.	16d/	.	.	.	.	.	.	.	.	.	.	.	.	.	.	.	.	.	.	.
8d\	.	.	8d\	.	16d/	.	4b\ 4gg	.	8G\	-ta	8d\	-mni-	8b\	-ta	8gg\	-ta	8g/	.	.	.	.	.	.	.
.	.	.	.	.	16d/	.	.	.	.	.	.	.	.	.	.	.	.	.	.	.	.	.	.	.
8B\	.	.	8d\	.	16d/	.	.	.	4G\	sunt	4d\	-a	4b\	sunt	4gg\	sunt	8g/	.	.	.	.	.	.	.
.	.	.	.	.	16d/	.	.	.	.	.	.	.	.	.	.	.	.	.	.	.	.	.	.	.
8G\J	.	.	8d\J	.	16d/	.	8b\ 8gg	.	.	.	.	.	.	.	.	.	8g/J	.	.	.	.	.	.	.
.	.	.	.	.	16d/JJ	.	.	.	.	.	.	.	.	.	.	.	.	.	.	.	.	.	.	.
*	*	*	*	*	*	*	*	*	*	*	*	*	*	*	*	*	*Xtremolo	*	*	*	*	*	*	*
!	!	!	!	!	!	!	!	!	!	!	!	!	!	!	!LO:LB:g=original	!	!	!	!	!	!	!	!	!
=76	=76	=76	=76	=76	=76	=76	=76	=76	=76	=76	=76	=76	=76	=76	=76	=76	=76	=76	=76	=76	=76	=76	=76	=76
!LO:TX:a:t=Solo	!	!	!	!	!	!	!	!	!	!	!	!	!	!	!	!	!	!	!	!	!	!	!	!
*	*	*	*	*	*Xtremolo	*	*	*	*	*	*	*	*	*	*	*	*	*	*	*	*	*	*	*
!	!	!LO:DY:b:t=p.	!	!	!	!	!	!	!	!	!	!	!	!	!	!	!	!	!	!	!	!	!	!
2.c\	.	p	2.e-\	p	8e-/L	.	8cc\L	p	8c\	per	8c\	per-	8g\	per-	8ee-\	per-	2.r	.	2.r	.	2.cc\	.	2.ee-\	.
.	.	.	.	.	8g/	.	(16bn\L	.	8c\	quem	8c\	-quem	8g\	-que(m)	8ee-\	-quem	.	.	.	.	.	.	.	.
.	.	.	.	.	.	.	16cc\JJ)	.	.	.	.	.	.	.	.	.	.	.	.	.	.	.	.	.
.	.	.	.	.	8e-/	.	(8ee-\L	.	4c\	O-	4c\	O-	4g\	i-	4ee-\	O-	.	.	.	.	.	.	.	.
.	.	.	.	.	8g/	.	8cc\)	.	.	.	.	.	.	.	.	.	.	.	.	.	.	.	.	.
!	!	!	!	!	!	!	!	!	!LO:LB:g=original	!	!	!	!	!	!	!	!	!	!	!	!	!	!	!
.	.	.	.	.	8e-/	.	(8ee-\	.	8c\	-mni-	8c\	-mni-	8g\	-mni-	8ee-\	-mni-	.	.	.	.	.	.	.	.
.	.	.	.	.	8g/J	.	8cc\J)	.	8c\	-a	8c\	-a	8g\	-a	8ee-\	-a	.	.	.	.	.	.	.	.
!	!	!	!LO:LB:g=original	!	!	!	!	!	!	!	!LO:LB:g=original	!	!LO:LB:g=original	!	!	!	!	!	!	!	!	!	!LO:LB:g=original	!
=77	=77	=77	=77	=77	=77	=77	=77	=77	=77	=77	=77	=77	=77	=77	=77	=77	=77	=77	=77	=77	=77	=77	=77	=77
2.Bn\	5 3	.	2.d\	.	8d/L	.	8r	.	4Bn\	fac-	4Bn\	fac-	4d\	fac-	4ffn\	fac-	2.r	.	2.r	.	2.dd\	.	2.ff\	.
.	.	.	.	.	8f/	.	(16dd\LL	.	.	.	.	.	.	.	.	.	.	.	.	.	.	.	.	.
.	.	.	.	.	.	.	16ee-\JJ)	.	.	.	.	.	.	.	.	.	.	.	.	.	.	.	.	.
.	.	.	.	.	8d/	.	(8ff\L	.	4B\	-ta	4B\	-ta	4d\	-ta	4ff\	-ta	.	.	.	.	.	.	.	.
.	.	.	.	.	8f/	.	8dd\)	.	.	.	.	.	.	.	.	.	.	.	.	.	.	.	.	.
.	.	.	.	.	8d/	.	(8ff\	.	4B\	sunt,	4B\	sunt.	4d\	sunt,	4ff\	sunt,	.	.	.	.	.	.	.	.
.	.	.	.	.	8f/J	.	8dd\J)	.	.	.	.	.	.	.	.	.	.	.	.	.	.	.	.	.
!LO:LB:g=original	!	!	!	!	!	!	!	!	!	!	!	!	!	!	!	!	!	!	!	!	!LO:LB:g=original	!	!	!
=78	=78	=78	=78	=78	=78	=78	=78	=78	=78	=78	=78	=78	=78	=78	=78	=78	=78	=78	=78	=78	=78	=78	=78	=78
!LO:TX:t=P:problem:mixed beam	!	!	!	!	!	!	!LO:TX:t=P:problem:mixed beam	!	!	!	!	!	!	!	!	!	!	!	!	!	!	!	!	!
8c\L	.	.	8c`\L	.	8g/L	.	8ee-/L	.	2.r	.	2.r	.	2.r	.	2.r	.	2.r	.	2.r	.	4cc\	.	4ee-\	.
8E-`\	.	.	8e-`\J	f	8e-/J	.	(16e-/L	.	.	.	.	.	.	.	.	.	.	.	.	.	.	.	.	.
.	.	.	.	.	.	.	16g/JJ)	.	.	.	.	.	.	.	.	.	.	.	.	.	.	.	.	.
8F`\	.	.	8f`\L	.	8f/L	.	8f`/L	.	.	.	.	.	.	.	.	.	.	.	.	.	4dd\	.	4ff\	.
8D`\	.	.	8d`\J	.	16e-/L	.	(16e-/L	.	.	.	.	.	.	.	.	.	.	.	.	.	.	.	.	.
.	.	.	.	.	16d/JJ	.	16d/JJ)	.	.	.	.	.	.	.	.	.	.	.	.	.	.	.	.	.
8G`\	.	.	8g`\L	.	8g/L	.	8g`/L	.	.	.	.	.	.	.	.	.	.	.	.	.	4ee-\	.	4gg\	.
8GG`\J	.	.	8e-`\J	.	8e-/J	.	8e-`/J	.	.	.	.	.	.	.	.	.	.	.	.	.	.	.	.	.
=79	=79	=79	=79	=79	=79	=79	=79	=79	=79	=79	=79	=79	=79	=79	=79	=79	=79	=79	=79	=79	=79	=79	=79	=79
!LO:TX:t=P:problem:mixed beam	!	!	!LO:TX:t=P:problem:mixed beam	!	!	!	!	!	!	!	!	!	!	!	!	!	!	!	!	!	!	!	!	!
8C`\L	.	.	8c\L	.	4c/	.	4c/	.	2.r	.	2.r	.	2.r	.	2.r	.	2.r	.	2.r	.	4cc\	.	4ee-\	.
8c`\	.	.	8cc\	.	.	.	.	.	.	.	.	.	.	.	.	.	.	.	.	.	.	.	.	.
8B-X`\	.	.	8b-\	.	4r	.	4r	.	.	.	.	.	.	.	.	.	.	.	.	.	4r	.	4r	.
8A-X`\	.	.	8a-X\	.	.	.	.	.	.	.	.	.	.	.	.	.	.	.	.	.	.	.	.	.
8G`\	.	.	8g\	.	4r	.	4r	.	.	.	.	.	.	.	.	.	.	.	.	.	4r	.	4r	.
8F`\J	.	.	8f\J	.	.	.	.	.	.	.	.	.	.	.	.	.	.	.	.	.	.	.	.	.
=80	=80	=80	=80	=80	=80	=80	=80	=80	=80	=80	=80	=80	=80	=80	=80	=80	=80	=80	=80	=80	=80	=80	=80	=80
!LO:TX:a:t=Tutti	!	!	!	!	!	!	!	!LO:DY:a	!	!	!	!	!	!	!	!	!	!	!	!	!	!	!	!
!	!	!	!	!	!	!	!	!LO:DY:t=f.	!	!	!	!	!	!	!	!	!	!	!	!	!	!	!	!
*tremolo	*	*	*	*	*tremolo	*	*	*	*	*	*	*	*	*	*	*	*	*	*	*	*	*	*	*
8E-\L	5 3	.	8e-\L	.	16B-/ 16gLL	.	8B-X/L 8g	f	4E-\	Qui	4e-\	Qui	4g\	Qui	4b-\	Qui	4g/	.	4ee-\	.	4ee-\	.	4gg\	.
.	.	.	.	.	16B-/ 16g	.	.	.	.	.	.	.	.	.	.	.	.	.	.	.	.	.	.	.
8E-\	.	.	8e-\	.	16B-/ 16g	.	8b-`/J	.	.	.	.	.	.	.	.	.	.	.	.	.	.	.	.	.
.	.	.	.	.	16B-/ 16g	.	.	.	.	.	.	.	.	.	.	.	.	.	.	.	.	.	.	.
8E-\	.	.	8e-\	.	16B-/ 16g	.	(16cc/LL	.	4E-\	p(ro)-	4e-\	p(ro)-	4g\	p(ro)-	4b-\	p(ro)-	4g/	.	4ee-\	.	4ee-\	.	4gg\	.
.	.	.	.	.	16B-/ 16g	.	16b-/)	.	.	.	.	.	.	.	.	.	.	.	.	.	.	.	.	.
8E-\	.	.	8e-\	.	16B-/ 16g	.	(16an/	.	.	.	.	.	.	.	.	.	.	.	.	.	.	.	.	.
.	.	.	.	.	16B-/ 16g	.	16b-/JJ)	.	.	.	.	.	.	.	.	.	.	.	.	.	.	.	.	.
!	!	!	!	!	!	!	!LO:LB:g=original	!	!	!	!	!	!	!	!	!	!	!	!	!	!	!	!	!
8E-\	.	.	8e-\	.	16B-/ 16g	.	8g/L	.	4E-\	-pter	4e-\	-pter	4g\	-pter	4b-\	-pter	4g/	.	4ee-\	.	4ee-\	.	4gg\	.
.	.	.	.	.	16B-/ 16g	.	.	.	.	.	.	.	.	.	.	.	.	.	.	.	.	.	.	.
8E-\J	.	.	8e-\J	.	16B-/ 16g	.	8b-/J	.	.	.	.	.	.	.	.	.	.	.	.	.	.	.	.	.
.	.	.	.	.	16B-/ 16gJJ	.	.	.	.	.	.	.	.	.	.	.	.	.	.	.	.	.	.	.
=81	=81	=81	=81	=81	=81	=81	=81	=81	=81	=81	=81	=81	=81	=81	=81	=81	=81	=81	=81	=81	=81	=81	=81	=81
*	*	*	*	*	*	*	*	*	*	*ij	*	*ij	*	*ij	*	*ij	*	*	*	*	*	*	*	*
8D\L	6 5	.	8f\L	.	16B-/ 16fLL	.	8B-/L 8f	.	4D\	Qui	4f\	Qui	4f\	Qui	4b-\	Qui	2b-/	.	2ff\	.	2dd\	.	2ff\	.
.	.	.	.	.	16B-/ 16f	.	.	.	.	.	.	.	.	.	.	.	.	.	.	.	.	.	.	.
8D\	.	.	8f\	.	16B-/ 16f	.	8b-/J	.	.	.	.	.	.	.	.	.	.	.	.	.	.	.	.	.
.	.	.	.	.	16B-/ 16f	.	.	.	.	.	.	.	.	.	.	.	.	.	.	.	.	.	.	.
8D\	.	.	8f\	.	16B-/ 16f	.	(16cc/LL	.	4D\	p(ro)-	4f\	p(ro)-	4f\	p(ro)-	4b-\	p(ro)-	.	.	.	.	.	.	.	.
.	.	.	.	.	16B-/ 16f	.	16b-/)	.	.	.	.	.	.	.	.	.	.	.	.	.	.	.	.	.
8D\	.	.	8f\	.	16B-/ 16f	.	(16an/	.	.	.	.	.	.	.	.	.	.	.	.	.	.	.	.	.
.	.	.	.	.	16B-/ 16f	.	16b-/JJ)	.	.	.	.	.	.	.	.	.	.	.	.	.	.	.	.	.
8D\	.	.	8f\	.	16B-/ 16f	.	8f`/L	.	4D\	-pter	4f\	-pter	4f\	-pter	4b-\	-pter	4b-/	.	4ff\	.	4dd\	.	4ff\	.
.	.	.	.	.	16B-/ 16f	.	.	.	.	.	.	.	.	.	.	.	.	.	.	.	.	.	.	.
*	*	*	*	*	*	*	*	*	*	*Xij	*	*Xij	*	*Xij	*	*Xij	*	*	*	*	*	*	*	*
8D\J	.	.	8f\J	.	16B-/ 16f	.	8b-`/J	.	.	.	.	.	.	.	.	.	.	.	.	.	.	.	.	.
.	.	.	.	.	16B-/ 16fJJ	.	.	.	.	.	.	.	.	.	.	.	.	.	.	.	.	.	.	.
=82	=82	=82	=82	=82	=82	=82	=82	=82	=82	=82	=82	=82	=82	=82	=82	=82	=82	=82	=82	=82	=82	=82	=82	=82
8E-\L	5 3	.	8e-\L	.	16B-/ 16gLL	.	8B-/L 8g	.	4E-\	nos	4e-\	nos	4g\	nos	4b-\	nos	4g/	.	4ee-\	.	4ee-\	.	4gg\	.
.	.	.	.	.	16B-/ 16g	.	.	.	.	.	.	.	.	.	.	.	.	.	.	.	.	.	.	.
8E-\	.	.	8e-\	.	16B-/ 16g	.	8b-/J	.	.	.	.	.	.	.	.	.	.	.	.	.	.	.	.	.
.	.	.	.	.	16B-/ 16g	.	.	.	.	.	.	.	.	.	.	.	.	.	.	.	.	.	.	.
8E-\	.	.	8e-\	.	16B-/ 16g	.	(16cc\LL	.	8E-\	ho-	8e-\	go-	8g\	ho-	8b-\	ho-	4g/	.	4ee-\	.	4ee-\	.	4gg\	.
.	.	.	.	.	16B-/ 16g	.	16b-\)	.	.	.	.	.	.	.	.	.	.	.	.	.	.	.	.	.
8E-\	.	.	8e-\	.	16B-/ 16g	.	(16an\	.	8E-\	-mi-	8e-\	-mi-	8g\	-mi-	8b-\	-mi-	.	.	.	.	.	.	.	.
.	.	.	.	.	16B-/ 16g	.	16b-\JJ)	.	.	.	.	.	.	.	.	.	.	.	.	.	.	.	.	.
8E-\	.	.	8e-\	.	16B-/ 16g	.	8g`/L	.	4E-\	-nes	4e-\	-nes	4g\	-nes	4b-\	-nes	4g/	.	4ee-\	.	4ee-\	.	4gg\	.
.	.	.	.	.	16B-/ 16g	.	.	.	.	.	.	.	.	.	.	.	.	.	.	.	.	.	.	.
8E-\J	.	.	8e-\J	.	16B-/ 16g	.	8b-`/J	.	.	.	.	.	.	.	.	.	.	.	.	.	.	.	.	.
.	.	.	.	.	16B-/ 16gJJ	.	.	.	.	.	.	.	.	.	.	.	.	.	.	.	.	.	.	.
!	!	!	!	!	!LO:LB:g=original	!	!	!	!	!	!	!	!	!	!	!	!	!	!	!	!	!	!	!
=83	=83	=83	=83	=83	=83	=83	=83	=83	=83	=83	=83	=83	=83	=83	=83	=83	=83	=83	=83	=83	=83	=83	=83	=83
8D\L	6 5	.	8f\L	.	16B-/ 16fLL	.	8B-/L 8f	.	4D\	qui	4f\	qui	4f\	qui	4b-\	qui	2b-/	.	2ff\	.	2dd\	.	2ff\	.
.	.	.	.	.	16B-/ 16f	.	.	.	.	.	.	.	.	.	.	.	.	.	.	.	.	.	.	.
8D\	.	.	8f\	.	16B-/ 16f	.	8b-/J	.	.	.	.	.	.	.	.	.	.	.	.	.	.	.	.	.
.	.	.	.	.	16B-/ 16f	.	.	.	.	.	.	.	.	.	.	.	.	.	.	.	.	.	.	.
8D\	.	.	8f\	.	16B-/ 16f	.	(16cc/LL	.	4D\	p(ro)-	4f\	p(ro)-	4f\	pro-	4b-\	p(ro)-	.	.	.	.	.	.	.	.
.	.	.	.	.	16B-/ 16f	.	16b-/)	.	.	.	.	.	.	.	.	.	.	.	.	.	.	.	.	.
8D\	.	.	8f\	.	16B-/ 16f	.	(16an/	.	.	.	.	.	.	.	.	.	.	.	.	.	.	.	.	.
.	.	.	.	.	16B-/ 16f	.	16b-/JJ)	.	.	.	.	.	.	.	.	.	.	.	.	.	.	.	.	.
8D\	.	.	8f\	.	16B-/ 16f	.	8f`/L	.	4D\	-pter	4f\	-pter	4f\	-pter	4b-\	-pter	4b-/	.	4ff\	.	4dd\	.	4ff\	.
.	.	.	.	.	16B-/ 16f	.	.	.	.	.	.	.	.	.	.	.	.	.	.	.	.	.	.	.
8D\J	.	.	8f\J	.	16B-/ 16f	.	8b-`/J	.	.	.	.	.	.	.	.	.	.	.	.	.	.	.	.	.
.	.	.	.	.	16B-/ 16fJJ	.	.	.	.	.	.	.	.	.	.	.	.	.	.	.	.	.	.	.
!	!	!	!	!	!	!	!	!	!	!	!	!	!	!	!LO:LB:g=original	!	!	!	!	!	!	!	!	!
=84	=84	=84	=84	=84	=84	=84	=84	=84	=84	=84	=84	=84	=84	=84	=84	=84	=84	=84	=84	=84	=84	=84	=84	=84
!	!	!	!	!	!	!	!LO:TX:t=P:problem:mixed beam	!	!	!	!	!	!	!	!	!	!	!	!	!	!	!	!	!
*	*	*	*	*	*	*	*	*	*	*	*	*ij	*	*ij	*	*	*	*	*	*	*	*	*	*
8E-\L	5 3	.	8B-/L	.	16g/LL	.	8g\L	ff	4E-\	qui	4g\	qui	4b-\	qui	4ee-\	qui	2g/	.	2ff\	.	2.b-\	.	4ee-\	.
.	.	.	.	.	16g/	.	.	.	.	.	.	.	.	.	.	.	.	.	.	.	.	.	.	.
8E-\	.	.	8B-/	.	16g/	.	8bb-\J	.	.	.	.	.	.	.	.	.	.	.	.	.	.	.	.	.
.	.	.	.	.	16g/	.	.	.	.	.	.	.	.	.	.	.	.	.	.	.	.	.	.	.
8E-\	.	.	8B-/	.	16g/	.	8gg\	.	4.G\	p(ro)-	4.g\	p(ro)-	4.b-\	pro-	4.ee-\	p(ro)-	.	.	.	.	.	.	4.ee-\	.
.	.	.	.	.	16g/	.	.	.	.	.	.	.	.	.	.	.	.	.	.	.	.	.	.	.
8E-\J	.	.	8B-/	.	16g/	.	4ee-\	.	.	.	.	.	.	.	.	.	.	.	.	.	.	.	.	.
.	.	.	.	.	16g/JJ	.	.	.	.	.	.	.	.	.	.	.	.	.	.	.	.	.	.	.
*Xtremolo	*	*	*	*	*	*	*	*	*	*	*	*	*	*	*	*	*	*	*	*	*	*	*	*
8G\L	-6 3	.	8B-/	.	16b-/LL	.	.	.	.	.	.	.	.	.	.	.	4ee-/	.	4aa-\	.	.	.	.	.
.	.	.	.	.	16b-/	.	.	.	.	.	.	.	.	.	.	.	.	.	.	.	.	.	.	.
8G\J	.	.	8B-/J	.	16b-/	.	8dd-X\	.	8G\	-pter	8g\	-pter	8b-\	-pter	8dd-X\	-pter	.	.	.	.	.	.	8dd-X\	.
.	.	.	.	.	16b-/JJ	.	.	.	.	.	.	.	.	.	.	.	.	.	.	.	.	.	.	.
*tremolo	*	*	*	*	*	*	*	*	*	*	*	*Xij	*	*Xij	*	*	*	*	*	*	*	*	*	*
!	!	!	!	!	!	!	!	!	!LO:LB:g=original	!	!	!	!LO:LB:g=original	!	!	!	!	!	!	!	!	!	!	!
!	!	!	!	!	!	!	!	!	!	!	!	!	!	!	!	!	!LO:LB:g=original	!	!	!	!	!	!	!
=85	=85	=85	=85	=85	=85	=85	=85	=85	=85	=85	=85	=85	=85	=85	=85	=85	=85	=85	=85	=85	=85	=85	=85	=85
8A-\L	.	.	8c/L	.	16cc\LL	.	8cc\	.	4A-\	nos	4e-\	nos	4a-\	nos	4cc\	nos	2.ee-\	.	2.aa-\	.	2a-X\	.	2.cc\	.
.	.	.	.	.	16cc\	.	.	.	.	.	.	.	.	.	.	.	.	.	.	.	.	.	.	.
8A-\	.	.	8c/	.	16cc\	.	4a-/	.	.	.	.	.	.	.	.	.	.	.	.	.	.	.	.	.
.	.	.	.	.	16cc\	.	.	.	.	.	.	.	.	.	.	.	.	.	.	.	.	.	.	.
8A-\	.	.	8c/	.	16cc\	.	.	.	8A-\	ho-	8e-\	ho-	8a-\	ho-	8cc\	ho-	.	.	.	.	.	.	.	.
.	.	.	.	.	16cc\	.	.	.	.	.	.	.	.	.	.	.	.	.	.	.	.	.	.	.
8A-\	.	.	8c/	.	16cc\	.	8e-`/L	.	8A-\	-mi-	8e-\	-mi-	8a-\	-mi-	8cc\	-mi-	.	.	.	.	.	.	.	.
.	.	.	.	.	16cc\	.	.	.	.	.	.	.	.	.	.	.	.	.	.	.	.	.	.	.
8A-\	.	.	8c/	.	16cc\	.	8c`/	.	4A-\	-nes	4e-\	-nes	4a-\	-nes	4cc\	-nes	.	.	.	.	4a-\	.	.	.
.	.	.	.	.	16cc\	.	.	.	.	.	.	.	.	.	.	.	.	.	.	.	.	.	.	.
8A-\J	.	.	8c/J	.	16cc\	.	8A-`/J	.	.	.	.	.	.	.	.	.	.	.	.	.	.	.	.	.
.	.	.	.	.	16cc\JJ	.	.	.	.	.	.	.	.	.	.	.	.	.	.	.	.	.	.	.
!	!	!	!LO:LB:g=original	!	!	!	!	!	!	!	!LO:LB:g=original	!	!	!	!	!	!	!	!	!	!	!	!	!
=86	=86	=86	=86	=86	=86	=86	=86	=86	=86	=86	=86	=86	=86	=86	=86	=86	=86	=86	=86	=86	=86	=86	=86	=86
!	!	!	!	!	!	!	!LO:TX:t=P:problem:mixed beam	!	!	!	!	!	!	!	!	!	!	!	!	!	!	!	!	!
8F\L	5 n	.	8c/L	.	16an/LL	.	8an\L	.	4F\	et	4An\	qui	4cc\	et	4ff\	et	2.ff\	f	2.aaX\	.	2.cc\	.	4ff\	.
.	.	.	.	.	16an/	.	.	.	.	.	.	.	.	.	.	.	.	.	.	.	.	.	.	.
8F\	.	.	8c/	.	16an/	.	8ccc\J	.	.	.	.	.	.	.	.	.	.	.	.	.	.	.	.	.
.	.	.	.	.	16an/	.	.	.	.	.	.	.	.	.	.	.	.	.	.	.	.	.	.	.
8F\	.	.	8c/	.	16an/	.	8aan\	.	4.An\	p(ro)-	4.A\	p(ro)-	4.cc\	p(ro)-	4.ff\	p(ro)-	.	.	.	.	.	.	4.ff\	.
.	.	.	.	.	16an/	.	.	.	.	.	.	.	.	.	.	.	.	.	.	.	.	.	.	.
8F\J	.	.	8c/	.	16an/	.	4ff\	.	.	.	.	.	.	.	.	.	.	.	.	.	.	.	.	.
.	.	.	.	.	16an/JJ	.	.	.	.	.	.	.	.	.	.	.	.	.	.	.	.	.	.	.
*Xtremolo	*	*	*	*	*	*	*	*	*	*	*	*	*	*	*	*	*	*	*	*	*	*	*	*
8An\L	6 5	.	8c/	.	16cc\LL	.	.	.	.	.	.	.	.	.	.	.	.	.	.	.	.	.	.	.
.	.	.	.	.	16cc\	.	.	.	.	.	.	.	.	.	.	.	.	.	.	.	.	.	.	.
8A\J	.	.	8c/J	.	16cc\	.	8ee-\	.	8A\	-pter	8A\	-pter	8cc\	-pter	8ee-\	-pter	.	.	.	.	.	.	8ee-\	.
.	.	.	.	.	16cc\JJ	.	.	.	.	.	.	.	.	.	.	.	.	.	.	.	.	.	.	.
!	!	!	!	!	!	!	!	!	!	!	!	!	!	!	!	!	!	!	!	!	!LO:LB:g=original	!	!LO:LB:g=original	!
=87	=87	=87	=87	=87	=87	=87	=87	=87	=87	=87	=87	=87	=87	=87	=87	=87	=87	=87	=87	=87	=87	=87	=87	=87
*tremolo	*	*	*	*	*	*	*	*	*	*ij	*	*	*	*ij	*	*	*	*	*	*	*	*	*	*
8B-\L	.	.	8d/L	.	16dd\LL	.	8dd\	.	4B-\	et	4f\	et	4b-\	et	4dd\	et	2.ff\	.	2.bb-\	.	2.b-\	.	2.dd\	.
.	.	.	.	.	16dd\	.	.	.	.	.	.	.	.	.	.	.	.	.	.	.	.	.	.	.
8B-\	.	.	8d/	.	16dd\	.	4b-\	.	.	.	.	.	.	.	.	.	.	.	.	.	.	.	.	.
.	.	.	.	.	16dd\	.	.	.	.	.	.	.	.	.	.	.	.	.	.	.	.	.	.	.
8B-\	.	.	8d/	.	16dd\	.	.	.	4B-\	p(ro)-	4f\	p(ro)-	4b-\	p(ro)-	4dd\	p(ro)-	.	.	.	.	.	.	.	.
.	.	.	.	.	16dd\	.	.	.	.	.	.	.	.	.	.	.	.	.	.	.	.	.	.	.
!	!	!	!	!	!	!	!LO:LB:g=original	!	!	!	!	!	!	!	!	!	!	!	!	!	!	!	!	!
8B-\	.	.	8d/	.	16dd\	.	8f/	.	.	.	.	.	.	.	.	.	.	.	.	.	.	.	.	.
.	.	.	.	.	16dd\	.	.	.	.	.	.	.	.	.	.	.	.	.	.	.	.	.	.	.
8B-\	.	.	8d/	.	16dd\	.	8d/L	.	4B-\	-pter	4f\	-pter	4b-\	-pter	4dd\	-pter	.	.	.	.	.	.	.	.
.	.	.	.	.	16dd\	.	.	.	.	.	.	.	.	.	.	.	.	.	.	.	.	.	.	.
8B-\J	.	.	8d/J	.	16dd\	.	8B-/J	.	.	.	.	.	.	.	.	.	.	.	.	.	.	.	.	.
.	.	.	.	.	16dd\JJ	.	.	.	.	.	.	.	.	.	.	.	.	.	.	.	.	.	.	.
*	*	*	*	*	*	*	*	*	*	*Xij	*	*	*	*Xij	*	*	*	*	*	*	*	*	*	*
!	!	!	!	!	!	!	!	!	!	!	!	!	!	!	!	!	!	!	!LO:LB:g=original	!	!	!	!	!
=88	=88	=88	=88	=88	=88	=88	=88	=88	=88	=88	=88	=88	=88	=88	=88	=88	=88	=88	=88	=88	=88	=88	=88	=88
!	!	!	!	!	!	!	!LO:TX:t=P:problem:mixed beam	!	!	!	!	!	!	!	!	!	!	!	!	!	!	!	!	!
8D\L	6 -5	.	8f\L	.	16f/LL	.	8d\L	.	8D\	noſ-	8d\	noſ-	8b-\	noſ-	8ff\	noſ-	4ff\	.	4aa-\	.	4dd\	.	4ff\	.
.	.	.	.	.	16f/	.	.	.	.	.	.	.	.	.	.	.	.	.	.	.	.	.	.	.
8D\	.	.	8f\	.	16f/	.	8aa-X\J	.	8D\	-tram	8d\	-tram	8b-\	-tra(m)	8ff\	-tram	.	.	.	.	.	.	.	.
.	.	.	.	.	16f/	.	.	.	.	.	.	.	.	.	.	.	.	.	.	.	.	.	.	.
8D\	.	.	8f\	.	16f/	.	8ff\	.	4D\	Sa-	8d\	Sa-	4b-\	sa-	4ff\	Sa-	2ff\	.	2aa-\	.	4ff\	.	4aa-\	.
.	.	.	.	.	16f/	.	.	.	.	.	.	.	.	.	.	.	.	.	.	.	.	.	.	.
8D\	.	.	8f\	.	16f/	.	4dd\	.	.	.	8d\	-lu-	.	.	.	.	.	.	.	.	.	.	.	.
.	.	.	.	.	16f/	.	.	.	.	.	.	.	.	.	.	.	.	.	.	.	.	.	.	.
8D\	.	.	8f\	.	16f/	.	.	.	8D\	-lu-	8d\	-te(m)	8b-\	-lu-	8ff\	-lu-	.	.	.	.	4dd\	.	4ff\	.
.	.	.	.	.	16f/	.	.	.	.	.	.	.	.	.	.	.	.	.	.	.	.	.	.	.
8D\J	.	.	8f\J	.	16f/	.	8b-\	.	8D\	-tem	8d\	de-	8b-\	-tem	8ff\	-tem	.	.	.	.	.	.	.	.
.	.	.	.	.	16f/JJ	.	.	.	.	.	.	.	.	.	.	.	.	.	.	.	.	.	.	.
=89	=89	=89	=89	=89	=89	=89	=89	=89	=89	=89	=89	=89	=89	=89	=89	=89	=89	=89	=89	=89	=89	=89	=89	=89
!	!	!	!	!	!	!	!LO:TX:t=P:problem:mixed beam	!	!	!	!	!	!	!	!	!	!	!	!	!	!	!	!	!
8E-\L	.	.	8b-\L	.	16g/LL	.	8g\L	.	4E-\	des-	4e-\	-scen-	4b-\	de-	4gg\	des-	4ee-\	.	4gg\	.	2ee-\	.	2gg\	.
.	.	.	.	.	16g/	.	.	.	.	.	.	.	.	.	.	.	.	.	.	.	.	.	.	.
8E-\	.	.	8b-\	.	16g/	.	8bb-\J	.	.	.	.	.	.	.	.	.	.	.	.	.	.	.	.	.
.	.	.	.	.	16g/	.	.	.	.	.	.	.	.	.	.	.	.	.	.	.	.	.	.	.
8E-\	.	.	8b-\	.	16g/	.	8gg\	.	4E-\	-cen-	4e-\	-dit	4b-\	-scen-	4gg\	-cen-	2g/	.	2ee-\	.	.	.	.	.
.	.	.	.	.	16g/	.	.	.	.	.	.	.	.	.	.	.	.	.	.	.	.	.	.	.
8E-\J	.	.	8b-\	.	16g/	.	4ee-\	.	.	.	.	.	.	.	.	.	.	.	.	.	.	.	.	.
.	.	.	.	.	16g/JJ	.	.	.	.	.	.	.	.	.	.	.	.	.	.	.	.	.	.	.
*Xtremolo	*	*	*	*	*	*	*	*	*	*	*	*	*	*	*	*	*	*	*	*	*	*	*	*
8G\L	6	.	8b-\	.	16e-/LL	.	.	.	4G\	-dit	4e-\	de	4b-\	-dit	4gg\	-dit	.	.	.	.	4b-\	.	4gg\	.
.	.	.	.	.	16e-/	.	.	.	.	.	.	.	.	.	.	.	.	.	.	.	.	.	.	.
8G\J	.	.	8b-\J	.	16e-/	.	8b-\	.	.	.	.	.	.	.	.	.	.	.	.	.	.	.	.	.
.	.	.	.	.	16e-/JJ	.	.	.	.	.	.	.	.	.	.	.	.	.	.	.	.	.	.	.
*	*	*	*	*	*Xtremolo	*	*	*	*	*	*	*	*	*	*	*	*	*	*	*	*	*	*	*
*	*	*	*Xtremolo	*	*	*	*	*	*	*	*	*	*	*	*	*	*	*	*	*	*	*	*	*
!LO:LB:g=original	!	!	!	!	!	!	!	!	!	!	!	!	!LO:LB:g=original	!	!LO:LB:g=original	!	!	!	!	!	!	!	!	!
=90	=90	=90	=90	=90	=90	=90	=90	=90	=90	=90	=90	=90	=90	=90	=90	=90	=90	=90	=90	=90	=90	=90	=90	=90
4A-\	6	.	4a-\	.	4d/	.	8cc`\L	.	4A-\	de	4g\	Cae-	4dd\	de	4aa-\	de	4r	.	4r	.	4cc\	.	4aa-\	.
.	.	.	.	.	.	.	8aa-`\J	.	.	.	.	.	.	.	.	.	.	.	.	.	.	.	.	.
4B-\	6 4	.	4b-\	.	8e-/L	.	8gg`\L	.	(4B-\	Cae-	4e-\	.	(4ee-\	Cae-	(4gg\	Cae-	4ee-\	.	4gg\	.	4ee-\	.	4gg\	.
.	.	.	.	.	8g/	.	8ee-`\J	.	.	.	.	.	.	.	.	.	.	.	.	.	.	.	.	.
4BB-/	5 3	.	4B-/	.	8d/	.	(8b-`\L	.	4BB-/)	.	4d\	.	4dd\)	.	4ff\)	.	4b-/	.	4ff\	.	4dd\	.	4ff\	.
.	.	.	.	.	8f/J	.	8dd\`J)	.	.	.	.	.	.	.	.	.	.	.	.	.	.	.	.	.
=91	=91	=91	=91	=91	=91	=91	=91	=91	=91	=91	=91	=91	=91	=91	=91	=91	=91	=91	=91	=91	=91	=91	=91	=91
4E-\	.	.	4e-\	.	4g/	.	4ee-\	.	4E-\	-lis	4e-\	-lis	4b-\	-lis	4ee-\	-lis	4g/	.	4ee-\	.	4g\ 4b-	.	4ee-\	.
4EE-/	.	.	4E-/	.	4r	.	4r	.	4r	.	4r	.	4r	.	4r	.	4r	.	4r	.	4r	.	4r	.
!	!	!	!	!	!	!	!	!	!	!	!	!	!	!	!	!	!	!	!	!	!	!	!	!
4r	.	.	4r	.	4r	.	4r	.	4r	.	4r	.	4b-\	de-	4gg\	de	4r	.	4r	.	4ee-\	.	4gg\	.
!	!	!	!	!	!	!	!	!	!LO:LB:g=original	!	!	!	!	!	!	!	!	!	!	!	!	!	!	!
=92	=92	=92	=92	=92	=92	=92	=92	=92	=92	=92	=92	=92	=92	=92	=92	=92	=92	=92	=92	=92	=92	=92	=92	=92
!LO:TX:b:t=pedale	!	!	!	!	!	!	!	!	!	!	!	!	!	!	!	!	!	!	!	!	!	!	!	!
!LO:TX:a:t=Solo	!	!	!	!	!	!	!	!	!	!	!LO:TX:a:t=6	!	!	!	!	!	!	!	!	!	!	!	!LO:TX:a:t=Solo	!
!	!	!	!	!	!	!	!	!LO:DY:t=p.	!	!	!	!	!	!	!	!	!	!	!	!	!	!	!	!
!	!	!	!	!	!	!	!	!	!	!	!	!	!	!	!	!	!	!	!	!	!LO:TX:a:t=Solo	!	!	!
4E-`\	.	.	2.B-/	p	4e-/	.	4e-/	p	2.r	.	2.r	.	2.b-\	-scen-	2gg\	scen-	2.r	.	2.r	.	2ee-\	.	2gg\	.
4G`\	.	.	.	.	4G/	.	4g`/	.	.	.	.	.	.	.	.	.	.	.	.	.	.	.	.	.
4B-`\	.	.	.	.	4B-/	.	4b-`/	.	.	.	.	.	.	.	4ff\	.	.	.	.	.	4dd\	.	4ff\	.
!	!	!	!	!	!LO:LB:g=original	!	!	!	!	!	!	!	!	!	!	!	!	!	!	!	!	!	!	!
=93	=93	=93	=93	=93	=93	=93	=93	=93	=93	=93	=93	=93	=93	=93	=93	=93	=93	=93	=93	=93	=93	=93	=93	=93
4E-`\	.	.	4B-/	.	4e-/	.	4e-`/	.	2.r	.	2.r	.	4b-\	-dit	4ee-\	-dit	4g/	.	(4ee-\	.	(4b-\	.	4ee-\	.
4r	.	.	4r	.	4r	.	4r	.	.	.	.	.	4r	.	4r	.	4b-/	p	4ff\	p	4dd\	.	4ff\	.
4r	.	.	4r	.	4r	.	4r	.	.	.	.	.	4e-\	de	4gg\	de	4ee-/	.	4gg\)	.	4ee-\)	.	4gg\	.
=94	=94	=94	=94	=94	=94	=94	=94	=94	=94	=94	=94	=94	=94	=94	=94	=94	=94	=94	=94	=94	=94	=94	=94	=94
4BB-/	.	.	2.B-/	.	4B-/	.	4B-`/	.	2.r	.	2.r	.	2f\	Cae-	2aa-\	Cae-	2.r	.	2.r	.	2ff\	.	2aa-\	.
4D/	.	.	.	.	4d/	.	4d`/	.	.	.	.	.	.	.	.	.	.	.	.	.	.	.	.	.
4E-/	.	.	.	.	4e-/	.	4f`/	.	.	.	.	.	4e-\	.	4gg\	.	.	.	.	.	4ee-\	.	4gg\	.
!	!	!	!LO:LB:g=original	!	!	!	!	!	!	!	!	!	!	!	!	!	!	!	!	!	!	!	!	!
!	!	!	!	!	!	!	!	!	!	!	!	!	!	!	!	!	!LO:LB:g=original	!	!	!	!	!	!	!
=95	=95	=95	=95	=95	=95	=95	=95	=95	=95	=95	=95	=95	=95	=95	=95	=95	=95	=95	=95	=95	=95	=95	=95	=95
4BB-/	.	.	4B-/	.	4B-/	.	4B-`/	.	2.r	.	2.r	.	4e-\	-lis	4ff\	-lis	4b-/	.	(4ff\	.	(4dd\	.	4ff\	.
4r	.	.	4r	.	4r	.	4r	.	.	.	.	.	4r	.	4r	.	4ee-/	.	4gg\)	p	4ee-\	.	4gg\	.
4r	.	.	4r	.	4r	.	4r	.	.	.	.	.	4r	.	4r	.	4ff/	.	4aa-`\	.	4ff\)	.	4aa-\	.
!	!	!	!	!	!	!	!	!	!	!	!	!	!	!	!	!	!	!	!	!	!LO:LB:g=original	!	!	!
=96	=96	=96	=96	=96	=96	=96	=96	=96	=96	=96	=96	=96	=96	=96	=96	=96	=96	=96	=96	=96	=96	=96	=96	=96
!LO:TX:a:t=Tutti	!	!	!	!	!	!	!	!	!	!	!	!	!	!	!	!	!	!	!	!	!	!	!	!
!	!	!	!	!	!	!	!	!LO:DY:t=f.	!	!	!	!	!	!	!	!	!	!	!	!	!	!	!	!
*	*	*	*Xtremolo	*	*	*	*	*	*	*	*	*	*	*	*	*	*	*	*	*	*	*	*	*
!	!	!LO:DY:t=f.	!	!	!	!	!	!	!	!	!	!	!	!	!	!	!	!	!	!	!	!	!	!
4E-`\	.	f	4b-\	f	4B-/ 4g	f	4b-\ 4bb-	f	2.r	.	2.r	.	2.r	.	2.r	.	4ee-/	.	4bb-\	.	4b-/	.	4bb-\	.
8G`\L	.	.	8g\L	.	8g/L	.	8gg\L	.	.	.	.	.	.	.	.	.	4b-/	f	4gg\	.	4g/	.	4gg\	.
8G`\	.	.	8g\	.	8g/	.	8gg\	.	.	.	.	.	.	.	.	.	.	.	.	.	.	.	.	.
8E-`\	.	.	8e-\	.	8e-/	.	8ee-\	.	.	.	.	.	.	.	.	.	4g/	.	4ee-\	.	4e-/	.	4ee-\	.
8E-`\J	.	.	8e-\J	.	8e-/J	.	8ee-\J	.	.	.	.	.	.	.	.	.	.	.	.	.	.	.	.	.
!	!	!	!	!	!	!	!	!	!	!	!	!	!	!	!	!	!	!	!	!	!	!	!LO:LB:g=original	!
!	!	!	!	!	!	!	!	!	!	!	!	!	!	!	!	!	!	!	!LO:LB:g=original	!	!	!	!	!
=97	=97	=97	=97	=97	=97	=97	=97	=97	=97	=97	=97	=97	=97	=97	=97	=97	=97	=97	=97	=97	=97	=97	=97	=97
8B-`\L	.	.	8B-/L	.	8b-/L	.	8b-/L	.	2.r	.	2.r	.	2.r	.	2.r	.	4b-/	.	4bb-\	.	4b-/	.	4bb-\	.
8B-`\	.	.	8B-/	.	8b-/	.	8b-/	.	.	.	.	.	.	.	.	.	.	.	.	.	.	.	.	.
8G`\	.	.	8A-/	.	8g/	.	8g/	.	.	.	.	.	.	.	.	.	4g/	.	4gg\	.	4g/	.	4gg\	.
8G`\	.	.	8A-/	.	8g/	.	8g/J	.	.	.	.	.	.	.	.	.	.	.	.	.	.	.	.	.
!	!	!	!	!	!	!	!LO:LB:g=original	!	!	!	!	!	!	!	!	!	!	!	!	!	!	!	!	!
8E-`\	.	.	8E-/	.	8e-/	.	8e-/L	.	.	.	.	.	.	.	.	.	4e-/	.	4ee-\	.	4e-/	.	4ee-\	.
8E-`\J	.	.	8E-/J	.	8e-/J	.	8e-/J	.	.	.	.	.	.	.	.	.	.	.	.	.	.	.	.	.
!	!	!	!	!	!	!	!	!	!	!	!LO:LB:g=original	!	!	!	!	!	!	!	!	!	!	!	!	!
=98	=98	=98	=98	=98	=98	=98	=98	=98	=98	=98	=98	=98	=98	=98	=98	=98	=98	=98	=98	=98	=98	=98	=98	=98
8BB-/L	5_ 3_	.	8B-`\L	.	4B-/	.	4B-/	.	4B-\	de	4B-\	de	4f\	de	4dd\	de	4B-/	.	4ff\	.	(4b-\	.	4dd\	.
8D/	.	.	8d`\	.	.	.	.	.	.	.	.	.	.	.	.	.	.	.	.	.	.	.	.	.
8F/	.	.	8f`\	.	4B-/ 4f	.	4f\ 4dd	.	2B-\	Cae-	2B-\	Cae-	2f\	Cae-	2dd\	Cae-	4b-/	.	4ff\	.	4dd\)	.	4ff\	.
8B-/	.	.	8b-`\	.	.	.	.	.	.	.	.	.	.	.	.	.	.	.	.	.	.	.	.	.
8F/	.	.	8f`\	.	4B-/ 4f	.	4f\ 4dd	.	.	.	.	.	.	.	.	.	4b-/	.	4ff\	.	4dd\	.	4ff\	.
8D/J	.	.	8d`\J	.	.	.	.	.	.	.	.	.	.	.	.	.	.	.	.	.	.	.	.	.
=99	=99	=99	=99	=99	=99	=99	=99	=99	=99	=99	=99	=99	=99	=99	=99	=99	=99	=99	=99	=99	=99	=99	=99	=99
4E-\	.	.	4e-\	.	4B-/ 4g	.	4g\ 4ee-	.	2E-\	-lis,	2B-\	-lis	2g\	-lis	2ee-\	-lis,	4g/	.	4ee-\	.	4ee-\	.	4gg\	.
4EE-/	.	.	4E-/	.	4B-/ 4g	.	4G/ 4e-	.	.	.	.	.	.	.	.	.	4g/	.	4ee-\	.	4ee-\	.	4gg\	.
!	!	!	!	!	!	!	!	!	!	!	!	!	!	!	!	!	!LO:TX:a:t=Et in Car. Tacet	!	!LO:TX:a:t=Et in Carnatus Tacet	!	!	!	!	!
4r	.	.	4r	.	4r	.	4r	.	4r	.	4r	.	4r	.	4r	.	4r	.	4r	.	4r	.	4r	.
==	==	==	==	==	==	==	==	==	==	==	==	==	==	==	==	==	==	==	==	==	==	==	==	==
*-	*-	*-	*-	*-	*-	*-	*-	*-	*-	*-	*-	*-	*-	*-	*-	*-	*-	*-	*-	*-	*-	*-	*-	*-
!!!system-decoration: [(s1,s2)][(s3,s4)][(s5,s6,s7,s8)][(s9,s10,s11)]s12
!!!ENC: Berenika Jozajtis
!!!END: 2020-07-22
!!!AIN: 1 alto 1 bass 2 clars 2 cor 1 organ 1 soprn 1 tenor 1 viola 2 violn
!!!ENC: Natalia Wrzos
!!!END: 2022-02-05
